(G-CODE GENERATED BY FLATCAM v8.991 - www.flatcam.org - Version Date: 2019/12/27)

(Name: Drill_PTH_Through.DRL_cnc)
(Type: G-code from Excellon)
(Units: MM)

(Created on Friday, 12 July 2024 at 00:06)

(Feedrate: 300.0 mm/min)
(Feedrate rapids 1500.0 mm/min)

(Z_Cut: -2.2 mm)
(Z_Move: 2.0 mm)
(Z Toolchange: 15.0 mm)
(X,Y Toolchange: 0.0000, 0.0000 mm)
(Z Start: None mm)
(Z End: 0.5 mm)
(Steps per circle: 64)
(Preprocessor Excellon: default)

(X range:    5.0495 ...   44.4505  mm)
(Y range:    5.4055 ...   29.5305  mm)

(Spindle Speed: None RPM)
G21
G90
G94




G01 F300.00
G00 Z2.0000

M03
G00 X5.7000 Y18.6840
G01 Z-2.2000
G01 Z0
G00 Z2.0000
G00 X5.7000 Y23.8360
G01 Z-2.2000
G01 Z0
G00 Z2.0000
G00 X5.7000 Y28.8440
G01 Z-2.2000
G01 Z0
G00 Z2.0000
G00 X26.0200 Y23.8000
G01 Z-2.2000
G01 Z0
G00 Z2.0000
G00 X26.0200 Y28.8800
G01 Z-2.2000
G01 Z0
G00 Z2.0000
G00 X43.8000 Y28.8440
G01 Z-2.2000
G01 Z0
G00 Z2.0000
G00 X43.8000 Y23.8360
G01 Z-2.2000
G01 Z0
G00 Z2.0000
G00 X43.8000 Y18.6840
G01 Z-2.2000
G01 Z0
G00 Z2.0000
G00 X43.8000 Y13.6760
G01 Z-2.2000
G01 Z0
G00 Z2.0000
G00 X26.0200 Y6.0560
G01 Z-2.2000
G01 Z0
G00 Z2.0000
G00 X26.0200 Y11.0640
G01 Z-2.2000
G01 Z0
G00 Z2.0000
G00 X26.0200 Y18.7200
G01 Z-2.2000
G01 Z0
G00 Z2.0000
G00 X5.7000 Y13.6760
G01 Z-2.2000
G01 Z0
G00 Z2.0000
M05
G00 Z0.50
G00 X0.0 Y0.0

