(G-CODE GENERATED BY FLATCAM v8.991 - www.flatcam.org - Version Date: 2019/12/27)

(Name: Gerber_BottomLayer.GBL_iso_cnc)
(Type: G-code from Geometry)
(Units: MM)

(Created on Friday, 12 July 2024 at 00:06)

(TOOL DIAMETER: 0.1 mm)
(Feedrate: 120.0 mm/min)
(Feedrate_Z: 60.0 mm/min)
(Feedrate rapids 1500.0 mm/min)

(Z_Cut: -0.9 mm)
(Z_Move: 2.0 mm)
(Z Toolchange: 15.0 mm)
(X,Y Toolchange: 0.0000, 0.0000 mm)
(Z Start: None mm)
(Z End: 15.0 mm)
(Steps per circle: 64)
(Preprocessor Geometry: default)

(X range:    4.2905 ...   45.2095  mm)
(Y range:    4.6460 ...   30.2896  mm)

(Spindle Speed: None RPM)
G21
G90
G94




G01 F120.00
G00 Z2.0000

M03
G00 X5.6807 Y12.2660
G01 F60.00
G01 Z-0.9000
G01 F120.00
G01 X12.6056 Y5.3412
G01 X12.6202 Y5.3273
G01 X12.6638 Y5.2877
G01 X12.6949 Y5.2622
G01 X12.7423 Y5.2271
G01 X12.7757 Y5.2048
G01 X12.8262 Y5.1745
G01 X12.8617 Y5.1555
G01 X12.9150 Y5.1303
G01 X12.9522 Y5.1149
G01 X13.0076 Y5.0951
G01 X13.0461 Y5.0834
G01 X13.1033 Y5.0691
G01 X13.1427 Y5.0612
G01 X13.2010 Y5.0526
G01 X13.2410 Y5.0486
G01 X13.2999 Y5.0457
G01 X13.3200 Y5.0452
G01 X25.0224 Y5.0452
G01 X25.0572 Y5.0269
G01 X25.1103 Y4.9787
G01 X25.1414 Y4.9532
G01 X25.2202 Y4.8948
G01 X25.2536 Y4.8724
G01 X25.3378 Y4.8220
G01 X25.3733 Y4.8030
G01 X25.4620 Y4.7610
G01 X25.4992 Y4.7456
G01 X25.5916 Y4.7126
G01 X25.6301 Y4.7009
G01 X25.7253 Y4.6771
G01 X25.7648 Y4.6692
G01 X25.8618 Y4.6548
G01 X25.9019 Y4.6509
G01 X25.9999 Y4.6460
G01 X26.0401 Y4.6460
G01 X26.1381 Y4.6509
G01 X26.1782 Y4.6548
G01 X26.2752 Y4.6692
G01 X26.3147 Y4.6771
G01 X26.4099 Y4.7009
G01 X26.4484 Y4.7126
G01 X26.5408 Y4.7456
G01 X26.5780 Y4.7610
G01 X26.6667 Y4.8030
G01 X26.7022 Y4.8220
G01 X26.7864 Y4.8724
G01 X26.8198 Y4.8948
G01 X26.8515 Y4.9182
G01 X35.2910 Y4.9182
G01 X35.3111 Y4.9187
G01 X35.3700 Y4.9216
G01 X35.4100 Y4.9256
G01 X35.4683 Y4.9342
G01 X35.5077 Y4.9421
G01 X35.5649 Y4.9564
G01 X35.6034 Y4.9681
G01 X35.6588 Y4.9879
G01 X35.6960 Y5.0033
G01 X35.7493 Y5.0285
G01 X35.7848 Y5.0475
G01 X35.8353 Y5.0778
G01 X35.8687 Y5.1001
G01 X35.9161 Y5.1352
G01 X35.9472 Y5.1607
G01 X35.9908 Y5.2003
G01 X36.0054 Y5.2142
G01 X43.1947 Y12.4034
G01 X43.2420 Y12.3810
G01 X43.2792 Y12.3656
G01 X43.3716 Y12.3326
G01 X43.4101 Y12.3209
G01 X43.5053 Y12.2971
G01 X43.5448 Y12.2892
G01 X43.6418 Y12.2748
G01 X43.6819 Y12.2709
G01 X43.7799 Y12.2660
G01 X43.8201 Y12.2660
G01 X43.9181 Y12.2709
G01 X43.9582 Y12.2748
G01 X44.0552 Y12.2892
G01 X44.0947 Y12.2971
G01 X44.1899 Y12.3209
G01 X44.2284 Y12.3326
G01 X44.3208 Y12.3656
G01 X44.3580 Y12.3810
G01 X44.4467 Y12.4230
G01 X44.4822 Y12.4420
G01 X44.5664 Y12.4924
G01 X44.5998 Y12.5148
G01 X44.6786 Y12.5732
G01 X44.7097 Y12.5987
G01 X44.7824 Y12.6647
G01 X44.8109 Y12.6931
G01 X44.8768 Y12.7658
G01 X44.9023 Y12.7969
G01 X44.9608 Y12.8757
G01 X44.9831 Y12.9092
G01 X45.0336 Y12.9934
G01 X45.0526 Y13.0289
G01 X45.0945 Y13.1176
G01 X45.1099 Y13.1547
G01 X45.1430 Y13.2471
G01 X45.1547 Y13.2856
G01 X45.1785 Y13.3808
G01 X45.1863 Y13.4203
G01 X45.2007 Y13.5174
G01 X45.2047 Y13.5574
G01 X45.2095 Y13.6554
G01 X45.2095 Y13.6957
G01 X45.2047 Y13.7937
G01 X45.2007 Y13.8337
G01 X45.1863 Y13.9308
G01 X45.1785 Y13.9703
G01 X45.1547 Y14.0655
G01 X45.1430 Y14.1040
G01 X45.1099 Y14.1964
G01 X45.0945 Y14.2335
G01 X45.0526 Y14.3222
G01 X45.0336 Y14.3577
G01 X44.9831 Y14.4419
G01 X44.9608 Y14.4754
G01 X44.9023 Y14.5542
G01 X44.8768 Y14.5853
G01 X44.8109 Y14.6580
G01 X44.7824 Y14.6864
G01 X44.7097 Y14.7524
G01 X44.6786 Y14.7779
G01 X44.5998 Y14.8363
G01 X44.5664 Y14.8587
G01 X44.4822 Y14.9091
G01 X44.4467 Y14.9281
G01 X44.3580 Y14.9701
G01 X44.3208 Y14.9855
G01 X44.2284 Y15.0185
G01 X44.1899 Y15.0302
G01 X44.0947 Y15.0540
G01 X44.0552 Y15.0619
G01 X43.9582 Y15.0763
G01 X43.9181 Y15.0802
G01 X43.8201 Y15.0851
G01 X43.7799 Y15.0851
G01 X43.6819 Y15.0802
G01 X43.6418 Y15.0763
G01 X43.5448 Y15.0619
G01 X43.5053 Y15.0540
G01 X43.4101 Y15.0302
G01 X43.3716 Y15.0185
G01 X43.2792 Y14.9855
G01 X43.2420 Y14.9701
G01 X43.1533 Y14.9281
G01 X43.1178 Y14.9091
G01 X43.0336 Y14.8587
G01 X43.0002 Y14.8363
G01 X42.9214 Y14.7779
G01 X42.8903 Y14.7524
G01 X42.8176 Y14.6864
G01 X42.7891 Y14.6580
G01 X42.7232 Y14.5853
G01 X42.6977 Y14.5542
G01 X42.6810 Y14.5317
G01 X42.6371 Y14.5207
G01 X42.5986 Y14.5090
G01 X42.5432 Y14.4892
G01 X42.5060 Y14.4738
G01 X42.4527 Y14.4486
G01 X42.4172 Y14.4296
G01 X42.3667 Y14.3993
G01 X42.3333 Y14.3770
G01 X42.2859 Y14.3419
G01 X42.2548 Y14.3164
G01 X42.2112 Y14.2768
G01 X42.1966 Y14.2629
G01 X34.8725 Y6.9389
G01 X27.1185 Y6.9389
G01 X27.0968 Y6.9653
G01 X27.0309 Y7.0380
G01 X27.0024 Y7.0664
G01 X26.9297 Y7.1324
G01 X26.8986 Y7.1579
G01 X26.8198 Y7.2163
G01 X26.7864 Y7.2387
G01 X26.7022 Y7.2891
G01 X26.6667 Y7.3081
G01 X26.5780 Y7.3501
G01 X26.5408 Y7.3655
G01 X26.4484 Y7.3985
G01 X26.4099 Y7.4102
G01 X26.3147 Y7.4340
G01 X26.2752 Y7.4419
G01 X26.1782 Y7.4563
G01 X26.1381 Y7.4602
G01 X26.0401 Y7.4651
G01 X25.9999 Y7.4651
G01 X25.9019 Y7.4602
G01 X25.8618 Y7.4563
G01 X25.7648 Y7.4419
G01 X25.7253 Y7.4340
G01 X25.6301 Y7.4102
G01 X25.5916 Y7.3985
G01 X25.4992 Y7.3655
G01 X25.4620 Y7.3501
G01 X25.3733 Y7.3081
G01 X25.3378 Y7.2891
G01 X25.2536 Y7.2387
G01 X25.2202 Y7.2163
G01 X25.1414 Y7.1579
G01 X25.1103 Y7.1324
G01 X25.0370 Y7.0659
G01 X13.7385 Y7.0659
G01 X7.1095 Y13.6948
G01 X7.1047 Y13.7937
G01 X7.1007 Y13.8337
G01 X7.0863 Y13.9308
G01 X7.0785 Y13.9703
G01 X7.0547 Y14.0655
G01 X7.0430 Y14.1040
G01 X7.0099 Y14.1964
G01 X6.9945 Y14.2335
G01 X6.9526 Y14.3222
G01 X6.9336 Y14.3577
G01 X6.8831 Y14.4419
G01 X6.8608 Y14.4754
G01 X6.8023 Y14.5542
G01 X6.7768 Y14.5853
G01 X6.7109 Y14.6580
G01 X6.6824 Y14.6864
G01 X6.6097 Y14.7524
G01 X6.5786 Y14.7779
G01 X6.4998 Y14.8363
G01 X6.4664 Y14.8587
G01 X6.3822 Y14.9091
G01 X6.3467 Y14.9281
G01 X6.2580 Y14.9701
G01 X6.2208 Y14.9855
G01 X6.1284 Y15.0185
G01 X6.0899 Y15.0302
G01 X5.9947 Y15.0540
G01 X5.9552 Y15.0619
G01 X5.8582 Y15.0763
G01 X5.8181 Y15.0802
G01 X5.7201 Y15.0851
G01 X5.6799 Y15.0851
G01 X5.5819 Y15.0802
G01 X5.5418 Y15.0763
G01 X5.4448 Y15.0619
G01 X5.4053 Y15.0540
G01 X5.3101 Y15.0302
G01 X5.2716 Y15.0185
G01 X5.1792 Y14.9855
G01 X5.1420 Y14.9701
G01 X5.0533 Y14.9281
G01 X5.0178 Y14.9091
G01 X4.9336 Y14.8587
G01 X4.9002 Y14.8363
G01 X4.8214 Y14.7779
G01 X4.7903 Y14.7524
G01 X4.7176 Y14.6864
G01 X4.6891 Y14.6580
G01 X4.6232 Y14.5853
G01 X4.5977 Y14.5542
G01 X4.5392 Y14.4754
G01 X4.5169 Y14.4419
G01 X4.4664 Y14.3577
G01 X4.4474 Y14.3222
G01 X4.4055 Y14.2335
G01 X4.3901 Y14.1964
G01 X4.3570 Y14.1040
G01 X4.3453 Y14.0655
G01 X4.3215 Y13.9703
G01 X4.3137 Y13.9308
G01 X4.2993 Y13.8337
G01 X4.2953 Y13.7937
G01 X4.2905 Y13.6957
G01 X4.2905 Y13.6554
G01 X4.2953 Y13.5574
G01 X4.2993 Y13.5174
G01 X4.3137 Y13.4203
G01 X4.3215 Y13.3808
G01 X4.3453 Y13.2856
G01 X4.3570 Y13.2471
G01 X4.3901 Y13.1547
G01 X4.4055 Y13.1176
G01 X4.4474 Y13.0289
G01 X4.4664 Y12.9934
G01 X4.5169 Y12.9092
G01 X4.5392 Y12.8757
G01 X4.5977 Y12.7969
G01 X4.6232 Y12.7658
G01 X4.6891 Y12.6931
G01 X4.7176 Y12.6647
G01 X4.7903 Y12.5987
G01 X4.8214 Y12.5732
G01 X4.9002 Y12.5148
G01 X4.9336 Y12.4924
G01 X5.0178 Y12.4420
G01 X5.0533 Y12.4230
G01 X5.1420 Y12.3810
G01 X5.1792 Y12.3656
G01 X5.2716 Y12.3326
G01 X5.3101 Y12.3209
G01 X5.4053 Y12.2971
G01 X5.4448 Y12.2892
G01 X5.5418 Y12.2748
G01 X5.5819 Y12.2709
G01 X5.6807 Y12.2660
G00 Z2.0000
G00 X5.7180 Y12.3560
G01 F60.00
G01 Z-0.9000
G01 F120.00
G01 X12.6692 Y5.4048
G01 X12.6806 Y5.3940
G01 X12.7243 Y5.3544
G01 X12.7485 Y5.3345
G01 X12.7959 Y5.2994
G01 X12.8220 Y5.2819
G01 X12.8725 Y5.2517
G01 X12.9002 Y5.2369
G01 X12.9535 Y5.2117
G01 X12.9825 Y5.1997
G01 X13.0379 Y5.1798
G01 X13.0680 Y5.1707
G01 X13.1251 Y5.1564
G01 X13.1559 Y5.1502
G01 X13.2142 Y5.1416
G01 X13.2455 Y5.1385
G01 X13.3043 Y5.1356
G01 X13.3200 Y5.1352
G01 X25.0468 Y5.1352
G01 X25.0645 Y5.1247
G01 X25.0922 Y5.1099
G01 X25.1077 Y5.1025
G01 X25.1707 Y5.0454
G01 X25.1950 Y5.0255
G01 X25.2738 Y4.9671
G01 X25.2999 Y4.9496
G01 X25.3841 Y4.8992
G01 X25.4118 Y4.8844
G01 X25.5005 Y4.8424
G01 X25.5295 Y4.8304
G01 X25.6219 Y4.7973
G01 X25.6520 Y4.7882
G01 X25.7472 Y4.7644
G01 X25.7780 Y4.7582
G01 X25.8750 Y4.7438
G01 X25.9063 Y4.7408
G01 X26.0043 Y4.7359
G01 X26.0357 Y4.7359
G01 X26.1337 Y4.7408
G01 X26.1650 Y4.7438
G01 X26.2620 Y4.7582
G01 X26.2928 Y4.7644
G01 X26.3880 Y4.7882
G01 X26.4181 Y4.7973
G01 X26.5105 Y4.8304
G01 X26.5395 Y4.8424
G01 X26.6282 Y4.8844
G01 X26.6559 Y4.8992
G01 X26.7401 Y4.9496
G01 X26.7662 Y4.9671
G01 X26.8217 Y5.0082
G01 X35.2910 Y5.0082
G01 X35.3067 Y5.0086
G01 X35.3655 Y5.0115
G01 X35.3968 Y5.0146
G01 X35.4551 Y5.0232
G01 X35.4859 Y5.0294
G01 X35.5430 Y5.0437
G01 X35.5731 Y5.0528
G01 X35.6285 Y5.0727
G01 X35.6575 Y5.0847
G01 X35.7108 Y5.1099
G01 X35.7385 Y5.1247
G01 X35.7890 Y5.1549
G01 X35.8151 Y5.1724
G01 X35.8625 Y5.2075
G01 X35.8867 Y5.2274
G01 X35.9304 Y5.2670
G01 X35.9418 Y5.2778
G01 X43.1765 Y12.5125
G01 X43.1918 Y12.5044
G01 X43.2805 Y12.4624
G01 X43.3095 Y12.4504
G01 X43.4019 Y12.4173
G01 X43.4320 Y12.4082
G01 X43.5272 Y12.3844
G01 X43.5580 Y12.3782
G01 X43.6550 Y12.3638
G01 X43.6863 Y12.3608
G01 X43.7843 Y12.3559
G01 X43.8157 Y12.3559
G01 X43.9137 Y12.3608
G01 X43.9450 Y12.3638
G01 X44.0420 Y12.3782
G01 X44.0728 Y12.3844
G01 X44.1680 Y12.4082
G01 X44.1981 Y12.4173
G01 X44.2905 Y12.4504
G01 X44.3195 Y12.4624
G01 X44.4082 Y12.5044
G01 X44.4359 Y12.5192
G01 X44.5201 Y12.5696
G01 X44.5462 Y12.5871
G01 X44.6250 Y12.6455
G01 X44.6493 Y12.6654
G01 X44.7220 Y12.7313
G01 X44.7442 Y12.7535
G01 X44.8101 Y12.8263
G01 X44.8300 Y12.8505
G01 X44.8885 Y12.9294
G01 X44.9059 Y12.9555
G01 X44.9564 Y13.0396
G01 X44.9712 Y13.0673
G01 X45.0132 Y13.1560
G01 X45.0252 Y13.1851
G01 X45.0582 Y13.2775
G01 X45.0674 Y13.3075
G01 X45.0912 Y13.4027
G01 X45.0973 Y13.4335
G01 X45.1117 Y13.5306
G01 X45.1148 Y13.5618
G01 X45.1196 Y13.6598
G01 X45.1196 Y13.6913
G01 X45.1148 Y13.7893
G01 X45.1117 Y13.8205
G01 X45.0973 Y13.9176
G01 X45.0912 Y13.9484
G01 X45.0674 Y14.0436
G01 X45.0582 Y14.0736
G01 X45.0252 Y14.1660
G01 X45.0132 Y14.1951
G01 X44.9712 Y14.2838
G01 X44.9564 Y14.3115
G01 X44.9059 Y14.3956
G01 X44.8885 Y14.4217
G01 X44.8300 Y14.5006
G01 X44.8101 Y14.5248
G01 X44.7442 Y14.5976
G01 X44.7220 Y14.6198
G01 X44.6493 Y14.6857
G01 X44.6250 Y14.7056
G01 X44.5462 Y14.7640
G01 X44.5201 Y14.7815
G01 X44.4359 Y14.8319
G01 X44.4082 Y14.8467
G01 X44.3195 Y14.8887
G01 X44.2905 Y14.9007
G01 X44.1981 Y14.9338
G01 X44.1680 Y14.9429
G01 X44.0728 Y14.9667
G01 X44.0420 Y14.9729
G01 X43.9450 Y14.9873
G01 X43.9137 Y14.9903
G01 X43.8157 Y14.9952
G01 X43.7843 Y14.9952
G01 X43.6863 Y14.9903
G01 X43.6550 Y14.9873
G01 X43.5580 Y14.9729
G01 X43.5272 Y14.9667
G01 X43.4320 Y14.9429
G01 X43.4019 Y14.9338
G01 X43.3095 Y14.9007
G01 X43.2805 Y14.8887
G01 X43.1918 Y14.8467
G01 X43.1641 Y14.8319
G01 X43.0799 Y14.7815
G01 X43.0538 Y14.7640
G01 X42.9750 Y14.7056
G01 X42.9507 Y14.6857
G01 X42.8780 Y14.6198
G01 X42.8558 Y14.5976
G01 X42.7899 Y14.5248
G01 X42.7700 Y14.5006
G01 X42.7333 Y14.4511
G01 X42.7161 Y14.4477
G01 X42.6590 Y14.4334
G01 X42.6289 Y14.4243
G01 X42.5735 Y14.4044
G01 X42.5445 Y14.3924
G01 X42.4912 Y14.3672
G01 X42.4635 Y14.3524
G01 X42.4130 Y14.3222
G01 X42.3869 Y14.3047
G01 X42.3395 Y14.2696
G01 X42.3153 Y14.2497
G01 X42.2716 Y14.2101
G01 X42.2602 Y14.1993
G01 X34.9098 Y6.8489
G01 X27.0736 Y6.8489
G01 X27.0500 Y6.8806
G01 X27.0301 Y6.9048
G01 X26.9642 Y6.9776
G01 X26.9420 Y6.9998
G01 X26.8693 Y7.0657
G01 X26.8450 Y7.0856
G01 X26.7662 Y7.1440
G01 X26.7401 Y7.1615
G01 X26.6559 Y7.2119
G01 X26.6282 Y7.2267
G01 X26.5395 Y7.2687
G01 X26.5105 Y7.2807
G01 X26.4181 Y7.3138
G01 X26.3880 Y7.3229
G01 X26.2928 Y7.3467
G01 X26.2620 Y7.3529
G01 X26.1650 Y7.3673
G01 X26.1337 Y7.3703
G01 X26.0357 Y7.3752
G01 X26.0043 Y7.3752
G01 X25.9063 Y7.3703
G01 X25.8750 Y7.3673
G01 X25.7780 Y7.3529
G01 X25.7472 Y7.3467
G01 X25.6520 Y7.3229
G01 X25.6219 Y7.3138
G01 X25.5295 Y7.2807
G01 X25.5005 Y7.2687
G01 X25.4118 Y7.2267
G01 X25.3841 Y7.2119
G01 X25.2999 Y7.1615
G01 X25.2738 Y7.1440
G01 X25.1950 Y7.0856
G01 X25.1707 Y7.0657
G01 X25.0980 Y6.9998
G01 X25.0742 Y6.9759
G01 X13.7012 Y6.9759
G01 X7.0195 Y13.6575
G01 X7.0196 Y13.6913
G01 X7.0148 Y13.7893
G01 X7.0117 Y13.8205
G01 X6.9973 Y13.9176
G01 X6.9912 Y13.9484
G01 X6.9674 Y14.0436
G01 X6.9582 Y14.0736
G01 X6.9252 Y14.1660
G01 X6.9132 Y14.1951
G01 X6.8712 Y14.2838
G01 X6.8564 Y14.3115
G01 X6.8059 Y14.3956
G01 X6.7885 Y14.4217
G01 X6.7300 Y14.5006
G01 X6.7101 Y14.5248
G01 X6.6442 Y14.5976
G01 X6.6220 Y14.6198
G01 X6.5493 Y14.6857
G01 X6.5250 Y14.7056
G01 X6.4462 Y14.7640
G01 X6.4201 Y14.7815
G01 X6.3359 Y14.8319
G01 X6.3082 Y14.8467
G01 X6.2195 Y14.8887
G01 X6.1905 Y14.9007
G01 X6.0981 Y14.9338
G01 X6.0680 Y14.9429
G01 X5.9728 Y14.9667
G01 X5.9420 Y14.9729
G01 X5.8450 Y14.9873
G01 X5.8137 Y14.9903
G01 X5.7157 Y14.9952
G01 X5.6843 Y14.9952
G01 X5.5863 Y14.9903
G01 X5.5550 Y14.9873
G01 X5.4580 Y14.9729
G01 X5.4272 Y14.9667
G01 X5.3320 Y14.9429
G01 X5.3019 Y14.9338
G01 X5.2095 Y14.9007
G01 X5.1805 Y14.8887
G01 X5.0918 Y14.8467
G01 X5.0641 Y14.8319
G01 X4.9799 Y14.7815
G01 X4.9538 Y14.7640
G01 X4.8750 Y14.7056
G01 X4.8507 Y14.6857
G01 X4.7780 Y14.6198
G01 X4.7558 Y14.5976
G01 X4.6899 Y14.5248
G01 X4.6700 Y14.5006
G01 X4.6115 Y14.4217
G01 X4.5941 Y14.3956
G01 X4.5436 Y14.3115
G01 X4.5288 Y14.2838
G01 X4.4868 Y14.1951
G01 X4.4748 Y14.1660
G01 X4.4418 Y14.0736
G01 X4.4326 Y14.0436
G01 X4.4088 Y13.9484
G01 X4.4027 Y13.9176
G01 X4.3883 Y13.8205
G01 X4.3852 Y13.7893
G01 X4.3804 Y13.6913
G01 X4.3804 Y13.6598
G01 X4.3852 Y13.5618
G01 X4.3883 Y13.5306
G01 X4.4027 Y13.4335
G01 X4.4088 Y13.4027
G01 X4.4326 Y13.3075
G01 X4.4418 Y13.2775
G01 X4.4748 Y13.1851
G01 X4.4868 Y13.1560
G01 X4.5288 Y13.0673
G01 X4.5436 Y13.0396
G01 X4.5941 Y12.9555
G01 X4.6115 Y12.9294
G01 X4.6700 Y12.8505
G01 X4.6899 Y12.8263
G01 X4.7558 Y12.7535
G01 X4.7780 Y12.7313
G01 X4.8507 Y12.6654
G01 X4.8750 Y12.6455
G01 X4.9538 Y12.5871
G01 X4.9799 Y12.5696
G01 X5.0641 Y12.5192
G01 X5.0918 Y12.5044
G01 X5.1805 Y12.4624
G01 X5.2095 Y12.4504
G01 X5.3019 Y12.4173
G01 X5.3320 Y12.4082
G01 X5.4272 Y12.3844
G01 X5.4580 Y12.3782
G01 X5.5550 Y12.3638
G01 X5.5863 Y12.3608
G01 X5.6843 Y12.3559
G01 X5.7180 Y12.3560
G00 Z2.0000
G00 X5.7534 Y12.4479
G01 F60.00
G01 Z-0.9000
G01 F120.00
G01 X12.7329 Y5.4684
G01 X12.7847 Y5.4211
G01 X12.8022 Y5.4068
G01 X12.8495 Y5.3717
G01 X12.8682 Y5.3591
G01 X12.9188 Y5.3289
G01 X12.9387 Y5.3182
G01 X12.9919 Y5.2930
G01 X13.0128 Y5.2844
G01 X13.0683 Y5.2645
G01 X13.0899 Y5.2580
G01 X13.1470 Y5.2437
G01 X13.1691 Y5.2393
G01 X13.2274 Y5.2306
G01 X13.2499 Y5.2284
G01 X13.3200 Y5.2252
G01 X25.0717 Y5.2252
G01 X25.1108 Y5.2019
G01 X25.1307 Y5.1912
G01 X25.1583 Y5.1781
G01 X25.2311 Y5.1121
G01 X25.2486 Y5.0978
G01 X25.3274 Y5.0393
G01 X25.3462 Y5.0268
G01 X25.4304 Y4.9764
G01 X25.4503 Y4.9657
G01 X25.5390 Y4.9238
G01 X25.5598 Y4.9151
G01 X25.6522 Y4.8821
G01 X25.6738 Y4.8755
G01 X25.7690 Y4.8517
G01 X25.7912 Y4.8473
G01 X25.8882 Y4.8329
G01 X25.9107 Y4.8306
G01 X26.0087 Y4.8258
G01 X26.0313 Y4.8258
G01 X26.1293 Y4.8306
G01 X26.1518 Y4.8329
G01 X26.2488 Y4.8473
G01 X26.2710 Y4.8517
G01 X26.3662 Y4.8755
G01 X26.3878 Y4.8821
G01 X26.4802 Y4.9151
G01 X26.5010 Y4.9238
G01 X26.5897 Y4.9657
G01 X26.6096 Y4.9764
G01 X26.6938 Y5.0268
G01 X26.7126 Y5.0393
G01 X26.7920 Y5.0982
G01 X35.2910 Y5.0982
G01 X35.3023 Y5.0985
G01 X35.3611 Y5.1014
G01 X35.3836 Y5.1036
G01 X35.4419 Y5.1123
G01 X35.4640 Y5.1167
G01 X35.5211 Y5.1310
G01 X35.5427 Y5.1375
G01 X35.5982 Y5.1574
G01 X35.6191 Y5.1660
G01 X35.6723 Y5.1912
G01 X35.6922 Y5.2019
G01 X35.7428 Y5.2321
G01 X35.7615 Y5.2447
G01 X35.8088 Y5.2798
G01 X35.8263 Y5.2941
G01 X35.8781 Y5.3414
G01 X43.1620 Y12.6253
G01 X43.2104 Y12.5964
G01 X43.2303 Y12.5857
G01 X43.3190 Y12.5438
G01 X43.3398 Y12.5351
G01 X43.4322 Y12.5021
G01 X43.4538 Y12.4955
G01 X43.5490 Y12.4717
G01 X43.5712 Y12.4673
G01 X43.6682 Y12.4529
G01 X43.6907 Y12.4506
G01 X43.7887 Y12.4458
G01 X43.8113 Y12.4458
G01 X43.9093 Y12.4506
G01 X43.9318 Y12.4529
G01 X44.0288 Y12.4673
G01 X44.0510 Y12.4717
G01 X44.1462 Y12.4955
G01 X44.1678 Y12.5021
G01 X44.2602 Y12.5351
G01 X44.2810 Y12.5438
G01 X44.3697 Y12.5857
G01 X44.3896 Y12.5964
G01 X44.4738 Y12.6468
G01 X44.4926 Y12.6593
G01 X44.5714 Y12.7178
G01 X44.5889 Y12.7321
G01 X44.6616 Y12.7980
G01 X44.6775 Y12.8140
G01 X44.7434 Y12.8867
G01 X44.7577 Y12.9041
G01 X44.8162 Y12.9830
G01 X44.8287 Y13.0017
G01 X44.8792 Y13.0859
G01 X44.8898 Y13.1058
G01 X44.9318 Y13.1945
G01 X44.9404 Y13.2154
G01 X44.9735 Y13.3078
G01 X44.9800 Y13.3294
G01 X45.0039 Y13.4246
G01 X45.0083 Y13.4467
G01 X45.0227 Y13.5438
G01 X45.0249 Y13.5662
G01 X45.0297 Y13.6643
G01 X45.0297 Y13.6868
G01 X45.0249 Y13.7849
G01 X45.0227 Y13.8073
G01 X45.0083 Y13.9044
G01 X45.0039 Y13.9265
G01 X44.9800 Y14.0217
G01 X44.9735 Y14.0433
G01 X44.9404 Y14.1357
G01 X44.9318 Y14.1566
G01 X44.8898 Y14.2453
G01 X44.8792 Y14.2652
G01 X44.8287 Y14.3494
G01 X44.8162 Y14.3681
G01 X44.7577 Y14.4470
G01 X44.7434 Y14.4644
G01 X44.6775 Y14.5371
G01 X44.6616 Y14.5531
G01 X44.5889 Y14.6190
G01 X44.5714 Y14.6333
G01 X44.4926 Y14.6918
G01 X44.4738 Y14.7043
G01 X44.3896 Y14.7547
G01 X44.3697 Y14.7654
G01 X44.2810 Y14.8073
G01 X44.2602 Y14.8160
G01 X44.1678 Y14.8490
G01 X44.1462 Y14.8556
G01 X44.0510 Y14.8794
G01 X44.0288 Y14.8838
G01 X43.9318 Y14.8982
G01 X43.9093 Y14.9005
G01 X43.8113 Y14.9053
G01 X43.7887 Y14.9053
G01 X43.6907 Y14.9005
G01 X43.6682 Y14.8982
G01 X43.5712 Y14.8838
G01 X43.5490 Y14.8794
G01 X43.4538 Y14.8556
G01 X43.4322 Y14.8490
G01 X43.3398 Y14.8160
G01 X43.3190 Y14.8073
G01 X43.2303 Y14.7654
G01 X43.2104 Y14.7547
G01 X43.1262 Y14.7043
G01 X43.1074 Y14.6918
G01 X43.0286 Y14.6333
G01 X43.0111 Y14.6190
G01 X42.9384 Y14.5531
G01 X42.9225 Y14.5371
G01 X42.8566 Y14.4644
G01 X42.8423 Y14.4470
G01 X42.7840 Y14.3684
G01 X42.7601 Y14.3648
G01 X42.7380 Y14.3604
G01 X42.6809 Y14.3461
G01 X42.6593 Y14.3396
G01 X42.6038 Y14.3197
G01 X42.5829 Y14.3111
G01 X42.5297 Y14.2859
G01 X42.5098 Y14.2752
G01 X42.4592 Y14.2450
G01 X42.4405 Y14.2324
G01 X42.3932 Y14.1973
G01 X42.3757 Y14.1830
G01 X42.3239 Y14.1357
G01 X34.9471 Y6.7589
G01 X27.0283 Y6.7589
G01 X26.9777 Y6.8270
G01 X26.9634 Y6.8444
G01 X26.8975 Y6.9171
G01 X26.8816 Y6.9331
G01 X26.8089 Y6.9990
G01 X26.7914 Y7.0133
G01 X26.7126 Y7.0718
G01 X26.6938 Y7.0843
G01 X26.6096 Y7.1347
G01 X26.5897 Y7.1454
G01 X26.5010 Y7.1873
G01 X26.4802 Y7.1960
G01 X26.3878 Y7.2290
G01 X26.3662 Y7.2356
G01 X26.2710 Y7.2594
G01 X26.2488 Y7.2638
G01 X26.1518 Y7.2782
G01 X26.1293 Y7.2805
G01 X26.0313 Y7.2853
G01 X26.0087 Y7.2853
G01 X25.9107 Y7.2805
G01 X25.8882 Y7.2782
G01 X25.7912 Y7.2638
G01 X25.7690 Y7.2594
G01 X25.6738 Y7.2356
G01 X25.6522 Y7.2290
G01 X25.5598 Y7.1960
G01 X25.5390 Y7.1873
G01 X25.4503 Y7.1454
G01 X25.4304 Y7.1347
G01 X25.3462 Y7.0843
G01 X25.3274 Y7.0718
G01 X25.2486 Y7.0133
G01 X25.2311 Y6.9990
G01 X25.1584 Y6.9331
G01 X25.1425 Y6.9171
G01 X25.1141 Y6.8859
G01 X13.6639 Y6.8859
G01 X6.9277 Y13.6221
G01 X6.9297 Y13.6643
G01 X6.9297 Y13.6868
G01 X6.9249 Y13.7849
G01 X6.9227 Y13.8073
G01 X6.9083 Y13.9044
G01 X6.9039 Y13.9265
G01 X6.8800 Y14.0217
G01 X6.8735 Y14.0433
G01 X6.8404 Y14.1357
G01 X6.8318 Y14.1566
G01 X6.7898 Y14.2453
G01 X6.7792 Y14.2652
G01 X6.7287 Y14.3494
G01 X6.7162 Y14.3681
G01 X6.6577 Y14.4470
G01 X6.6434 Y14.4644
G01 X6.5775 Y14.5371
G01 X6.5616 Y14.5531
G01 X6.4889 Y14.6190
G01 X6.4714 Y14.6333
G01 X6.3926 Y14.6918
G01 X6.3738 Y14.7043
G01 X6.2896 Y14.7547
G01 X6.2697 Y14.7654
G01 X6.1810 Y14.8073
G01 X6.1602 Y14.8160
G01 X6.0678 Y14.8490
G01 X6.0462 Y14.8556
G01 X5.9510 Y14.8794
G01 X5.9288 Y14.8838
G01 X5.8318 Y14.8982
G01 X5.8093 Y14.9005
G01 X5.7113 Y14.9053
G01 X5.6887 Y14.9053
G01 X5.5907 Y14.9005
G01 X5.5682 Y14.8982
G01 X5.4712 Y14.8838
G01 X5.4490 Y14.8794
G01 X5.3538 Y14.8556
G01 X5.3322 Y14.8490
G01 X5.2398 Y14.8160
G01 X5.2190 Y14.8073
G01 X5.1303 Y14.7654
G01 X5.1104 Y14.7547
G01 X5.0262 Y14.7043
G01 X5.0074 Y14.6918
G01 X4.9286 Y14.6333
G01 X4.9111 Y14.6190
G01 X4.8384 Y14.5531
G01 X4.8225 Y14.5371
G01 X4.7566 Y14.4644
G01 X4.7423 Y14.4470
G01 X4.6838 Y14.3681
G01 X4.6713 Y14.3494
G01 X4.6208 Y14.2652
G01 X4.6102 Y14.2453
G01 X4.5682 Y14.1566
G01 X4.5596 Y14.1357
G01 X4.5265 Y14.0433
G01 X4.5200 Y14.0217
G01 X4.4961 Y13.9265
G01 X4.4917 Y13.9044
G01 X4.4773 Y13.8073
G01 X4.4751 Y13.7849
G01 X4.4703 Y13.6868
G01 X4.4703 Y13.6643
G01 X4.4751 Y13.5662
G01 X4.4773 Y13.5438
G01 X4.4917 Y13.4467
G01 X4.4961 Y13.4246
G01 X4.5200 Y13.3294
G01 X4.5265 Y13.3078
G01 X4.5596 Y13.2154
G01 X4.5682 Y13.1945
G01 X4.6102 Y13.1058
G01 X4.6208 Y13.0859
G01 X4.6713 Y13.0017
G01 X4.6838 Y12.9830
G01 X4.7423 Y12.9041
G01 X4.7566 Y12.8867
G01 X4.8225 Y12.8140
G01 X4.8384 Y12.7980
G01 X4.9111 Y12.7321
G01 X4.9286 Y12.7178
G01 X5.0074 Y12.6593
G01 X5.0262 Y12.6468
G01 X5.1104 Y12.5964
G01 X5.1303 Y12.5857
G01 X5.2190 Y12.5438
G01 X5.2398 Y12.5351
G01 X5.3322 Y12.5021
G01 X5.3538 Y12.4955
G01 X5.4490 Y12.4717
G01 X5.4712 Y12.4673
G01 X5.5682 Y12.4529
G01 X5.5907 Y12.4506
G01 X5.6887 Y12.4458
G01 X5.7113 Y12.4458
G01 X5.7534 Y12.4479
G00 Z2.0000
G00 X5.7889 Y12.5397
G01 F60.00
G01 Z-0.9000
G01 F120.00
G01 X12.7965 Y5.5321
G01 X12.8452 Y5.4878
G01 X12.8558 Y5.4791
G01 X12.9031 Y5.4440
G01 X12.9145 Y5.4363
G01 X12.9650 Y5.4061
G01 X12.9772 Y5.3996
G01 X13.0304 Y5.3744
G01 X13.0431 Y5.3691
G01 X13.0986 Y5.3493
G01 X13.1117 Y5.3453
G01 X13.1689 Y5.3310
G01 X13.1823 Y5.3283
G01 X13.2406 Y5.3197
G01 X13.2543 Y5.3183
G01 X13.3200 Y5.3152
G01 X25.0977 Y5.3152
G01 X25.1065 Y5.3093
G01 X25.1570 Y5.2791
G01 X25.1692 Y5.2726
G01 X25.2106 Y5.2530
G01 X25.2189 Y5.2447
G01 X25.2916 Y5.1788
G01 X25.3022 Y5.1701
G01 X25.3810 Y5.1116
G01 X25.3925 Y5.1040
G01 X25.4766 Y5.0535
G01 X25.4887 Y5.0471
G01 X25.5775 Y5.0051
G01 X25.5902 Y4.9999
G01 X25.6826 Y4.9668
G01 X25.6957 Y4.9628
G01 X25.7909 Y4.9390
G01 X25.8044 Y4.9363
G01 X25.9014 Y4.9219
G01 X25.9151 Y4.9205
G01 X26.0131 Y4.9157
G01 X26.0269 Y4.9157
G01 X26.1249 Y4.9205
G01 X26.1386 Y4.9219
G01 X26.2356 Y4.9363
G01 X26.2491 Y4.9390
G01 X26.3443 Y4.9628
G01 X26.3574 Y4.9668
G01 X26.4498 Y4.9999
G01 X26.4625 Y5.0051
G01 X26.5513 Y5.0471
G01 X26.5634 Y5.0535
G01 X26.6475 Y5.1040
G01 X26.6590 Y5.1116
G01 X26.7378 Y5.1701
G01 X26.7484 Y5.1788
G01 X26.7588 Y5.1882
G01 X35.2910 Y5.1882
G01 X35.3567 Y5.1913
G01 X35.3704 Y5.1927
G01 X35.4287 Y5.2013
G01 X35.4421 Y5.2040
G01 X35.4993 Y5.2183
G01 X35.5124 Y5.2223
G01 X35.5679 Y5.2421
G01 X35.5806 Y5.2474
G01 X35.6338 Y5.2726
G01 X35.6460 Y5.2791
G01 X35.6965 Y5.3093
G01 X35.7079 Y5.3170
G01 X35.7552 Y5.3521
G01 X35.7658 Y5.3608
G01 X35.8145 Y5.4051
G01 X43.1495 Y12.7402
G01 X43.1610 Y12.7316
G01 X43.1725 Y12.7240
G01 X43.2566 Y12.6735
G01 X43.2687 Y12.6671
G01 X43.3575 Y12.6251
G01 X43.3702 Y12.6199
G01 X43.4626 Y12.5868
G01 X43.4757 Y12.5828
G01 X43.5709 Y12.5590
G01 X43.5844 Y12.5563
G01 X43.6814 Y12.5419
G01 X43.6951 Y12.5405
G01 X43.7931 Y12.5357
G01 X43.8069 Y12.5357
G01 X43.9049 Y12.5405
G01 X43.9186 Y12.5419
G01 X44.0156 Y12.5563
G01 X44.0291 Y12.5590
G01 X44.1243 Y12.5828
G01 X44.1374 Y12.5868
G01 X44.2298 Y12.6199
G01 X44.2425 Y12.6251
G01 X44.3313 Y12.6671
G01 X44.3434 Y12.6735
G01 X44.4275 Y12.7240
G01 X44.4390 Y12.7316
G01 X44.5178 Y12.7901
G01 X44.5284 Y12.7988
G01 X44.6011 Y12.8647
G01 X44.6108 Y12.8744
G01 X44.6767 Y12.9471
G01 X44.6855 Y12.9578
G01 X44.7439 Y13.0366
G01 X44.7516 Y13.0480
G01 X44.8020 Y13.1322
G01 X44.8085 Y13.1443
G01 X44.8504 Y13.2330
G01 X44.8557 Y13.2457
G01 X44.8888 Y13.3381
G01 X44.8927 Y13.3512
G01 X44.9166 Y13.4464
G01 X44.9193 Y13.4599
G01 X44.9337 Y13.5570
G01 X44.9350 Y13.5707
G01 X44.9398 Y13.6687
G01 X44.9398 Y13.6824
G01 X44.9350 Y13.7804
G01 X44.9337 Y13.7941
G01 X44.9193 Y13.8912
G01 X44.9166 Y13.9047
G01 X44.8927 Y13.9999
G01 X44.8888 Y14.0130
G01 X44.8557 Y14.1054
G01 X44.8504 Y14.1181
G01 X44.8085 Y14.2068
G01 X44.8020 Y14.2189
G01 X44.7516 Y14.3031
G01 X44.7439 Y14.3145
G01 X44.6855 Y14.3933
G01 X44.6767 Y14.4040
G01 X44.6108 Y14.4767
G01 X44.6011 Y14.4864
G01 X44.5284 Y14.5523
G01 X44.5178 Y14.5610
G01 X44.4390 Y14.6195
G01 X44.4275 Y14.6271
G01 X44.3434 Y14.6776
G01 X44.3313 Y14.6840
G01 X44.2425 Y14.7260
G01 X44.2298 Y14.7312
G01 X44.1374 Y14.7643
G01 X44.1243 Y14.7683
G01 X44.0291 Y14.7921
G01 X44.0156 Y14.7948
G01 X43.9186 Y14.8092
G01 X43.9049 Y14.8106
G01 X43.8069 Y14.8154
G01 X43.7931 Y14.8154
G01 X43.6951 Y14.8106
G01 X43.6814 Y14.8092
G01 X43.5844 Y14.7948
G01 X43.5709 Y14.7921
G01 X43.4757 Y14.7683
G01 X43.4626 Y14.7643
G01 X43.3702 Y14.7312
G01 X43.3575 Y14.7260
G01 X43.2687 Y14.6840
G01 X43.2566 Y14.6776
G01 X43.1725 Y14.6271
G01 X43.1610 Y14.6195
G01 X43.0822 Y14.5610
G01 X43.0716 Y14.5523
G01 X42.9989 Y14.4864
G01 X42.9892 Y14.4767
G01 X42.9233 Y14.4040
G01 X42.9145 Y14.3933
G01 X42.8561 Y14.3145
G01 X42.8484 Y14.3031
G01 X42.8376 Y14.2850
G01 X42.8316 Y14.2844
G01 X42.7733 Y14.2758
G01 X42.7599 Y14.2731
G01 X42.7027 Y14.2588
G01 X42.6896 Y14.2548
G01 X42.6341 Y14.2350
G01 X42.6214 Y14.2297
G01 X42.5682 Y14.2045
G01 X42.5560 Y14.1980
G01 X42.5055 Y14.1678
G01 X42.4941 Y14.1601
G01 X42.4468 Y14.1250
G01 X42.4362 Y14.1163
G01 X42.3875 Y14.0720
G01 X34.9844 Y6.6689
G01 X26.9801 Y6.6689
G01 X26.9716 Y6.6831
G01 X26.9639 Y6.6945
G01 X26.9055 Y6.7733
G01 X26.8967 Y6.7840
G01 X26.8308 Y6.8567
G01 X26.8211 Y6.8664
G01 X26.7484 Y6.9323
G01 X26.7378 Y6.9410
G01 X26.6590 Y6.9995
G01 X26.6475 Y7.0071
G01 X26.5634 Y7.0576
G01 X26.5513 Y7.0640
G01 X26.4625 Y7.1060
G01 X26.4498 Y7.1112
G01 X26.3574 Y7.1443
G01 X26.3443 Y7.1483
G01 X26.2491 Y7.1721
G01 X26.2356 Y7.1748
G01 X26.1386 Y7.1892
G01 X26.1249 Y7.1906
G01 X26.0269 Y7.1954
G01 X26.0131 Y7.1954
G01 X25.9151 Y7.1906
G01 X25.9014 Y7.1892
G01 X25.8044 Y7.1748
G01 X25.7909 Y7.1721
G01 X25.6957 Y7.1483
G01 X25.6826 Y7.1443
G01 X25.5902 Y7.1112
G01 X25.5775 Y7.1060
G01 X25.4887 Y7.0640
G01 X25.4766 Y7.0576
G01 X25.3925 Y7.0071
G01 X25.3810 Y6.9995
G01 X25.3022 Y6.9410
G01 X25.2916 Y6.9323
G01 X25.2189 Y6.8664
G01 X25.2092 Y6.8567
G01 X25.1540 Y6.7959
G01 X13.6266 Y6.7959
G01 X6.8358 Y13.5867
G01 X6.8398 Y13.6687
G01 X6.8398 Y13.6824
G01 X6.8350 Y13.7804
G01 X6.8337 Y13.7941
G01 X6.8193 Y13.8912
G01 X6.8166 Y13.9047
G01 X6.7927 Y13.9999
G01 X6.7888 Y14.0130
G01 X6.7557 Y14.1054
G01 X6.7504 Y14.1181
G01 X6.7085 Y14.2068
G01 X6.7020 Y14.2189
G01 X6.6516 Y14.3031
G01 X6.6439 Y14.3145
G01 X6.5855 Y14.3933
G01 X6.5767 Y14.4040
G01 X6.5108 Y14.4767
G01 X6.5011 Y14.4864
G01 X6.4284 Y14.5523
G01 X6.4178 Y14.5610
G01 X6.3390 Y14.6195
G01 X6.3275 Y14.6271
G01 X6.2434 Y14.6776
G01 X6.2313 Y14.6840
G01 X6.1425 Y14.7260
G01 X6.1298 Y14.7312
G01 X6.0374 Y14.7643
G01 X6.0243 Y14.7683
G01 X5.9291 Y14.7921
G01 X5.9156 Y14.7948
G01 X5.8186 Y14.8092
G01 X5.8049 Y14.8106
G01 X5.7069 Y14.8154
G01 X5.6931 Y14.8154
G01 X5.5951 Y14.8106
G01 X5.5814 Y14.8092
G01 X5.4844 Y14.7948
G01 X5.4709 Y14.7921
G01 X5.3757 Y14.7683
G01 X5.3626 Y14.7643
G01 X5.2702 Y14.7312
G01 X5.2575 Y14.7260
G01 X5.1687 Y14.6840
G01 X5.1566 Y14.6776
G01 X5.0725 Y14.6271
G01 X5.0610 Y14.6195
G01 X4.9822 Y14.5610
G01 X4.9716 Y14.5523
G01 X4.8989 Y14.4864
G01 X4.8892 Y14.4767
G01 X4.8233 Y14.4040
G01 X4.8145 Y14.3933
G01 X4.7561 Y14.3145
G01 X4.7484 Y14.3031
G01 X4.6980 Y14.2189
G01 X4.6915 Y14.2068
G01 X4.6496 Y14.1181
G01 X4.6443 Y14.1054
G01 X4.6112 Y14.0130
G01 X4.6073 Y13.9999
G01 X4.5834 Y13.9047
G01 X4.5807 Y13.8912
G01 X4.5663 Y13.7941
G01 X4.5650 Y13.7804
G01 X4.5602 Y13.6824
G01 X4.5602 Y13.6687
G01 X4.5650 Y13.5707
G01 X4.5663 Y13.5570
G01 X4.5807 Y13.4599
G01 X4.5834 Y13.4464
G01 X4.6073 Y13.3512
G01 X4.6112 Y13.3381
G01 X4.6443 Y13.2457
G01 X4.6496 Y13.2330
G01 X4.6915 Y13.1443
G01 X4.6980 Y13.1322
G01 X4.7484 Y13.0480
G01 X4.7561 Y13.0366
G01 X4.8145 Y12.9578
G01 X4.8233 Y12.9471
G01 X4.8892 Y12.8744
G01 X4.8989 Y12.8647
G01 X4.9716 Y12.7988
G01 X4.9822 Y12.7901
G01 X5.0610 Y12.7316
G01 X5.0725 Y12.7240
G01 X5.1566 Y12.6735
G01 X5.1687 Y12.6671
G01 X5.2575 Y12.6251
G01 X5.2702 Y12.6199
G01 X5.3626 Y12.5868
G01 X5.3757 Y12.5828
G01 X5.4709 Y12.5590
G01 X5.4844 Y12.5563
G01 X5.5814 Y12.5419
G01 X5.5951 Y12.5405
G01 X5.6931 Y12.5357
G01 X5.7069 Y12.5357
G01 X5.7889 Y12.5397
G00 Z2.0000
G00 X5.8224 Y12.6334
G01 F60.00
G01 Z-0.9000
G01 F120.00
G01 X12.8602 Y5.5957
G01 X12.9094 Y5.5514
G01 X12.9608 Y5.5135
G01 X13.0156 Y5.4809
G01 X13.0734 Y5.4539
G01 X13.1336 Y5.4326
G01 X13.1956 Y5.4173
G01 X13.2587 Y5.4082
G01 X13.3200 Y5.4052
G01 X25.1271 Y5.4052
G01 X25.1528 Y5.3865
G01 X25.2033 Y5.3562
G01 X25.2647 Y5.3272
G01 X25.2793 Y5.3114
G01 X25.3520 Y5.2455
G01 X25.4387 Y5.1812
G01 X25.5272 Y5.1284
G01 X25.6159 Y5.0865
G01 X25.7176 Y5.0501
G01 X25.8176 Y5.0253
G01 X25.9195 Y5.0104
G01 X26.0225 Y5.0056
G01 X26.1254 Y5.0109
G01 X26.2224 Y5.0253
G01 X26.3224 Y5.0501
G01 X26.4195 Y5.0846
G01 X26.5128 Y5.1284
G01 X26.6013 Y5.1812
G01 X26.6842 Y5.2424
G01 X26.7241 Y5.2782
G01 X35.2910 Y5.2782
G01 X35.3572 Y5.2817
G01 X35.4203 Y5.2913
G01 X35.4821 Y5.3070
G01 X35.5421 Y5.3287
G01 X35.5997 Y5.3562
G01 X35.6543 Y5.3893
G01 X35.7054 Y5.4275
G01 X35.7508 Y5.4687
G01 X43.1408 Y12.8587
G01 X43.2187 Y12.8012
G01 X43.3029 Y12.7507
G01 X43.4005 Y12.7046
G01 X43.4976 Y12.6701
G01 X43.5928 Y12.6463
G01 X43.6995 Y12.6304
G01 X43.7975 Y12.6256
G01 X43.9005 Y12.6304
G01 X44.0072 Y12.6463
G01 X44.1024 Y12.6701
G01 X44.1995 Y12.7046
G01 X44.2928 Y12.7484
G01 X44.3854 Y12.8039
G01 X44.4642 Y12.8624
G01 X44.5407 Y12.9314
G01 X44.6101 Y13.0076
G01 X44.6744 Y13.0943
G01 X44.7271 Y13.1828
G01 X44.7691 Y13.2715
G01 X44.8054 Y13.3731
G01 X44.8302 Y13.4731
G01 X44.8446 Y13.5702
G01 X44.8499 Y13.6780
G01 X44.8451 Y13.7760
G01 X44.8302 Y13.8780
G01 X44.8054 Y13.9780
G01 X44.7710 Y14.0751
G01 X44.7271 Y14.1683
G01 X44.6744 Y14.2568
G01 X44.6101 Y14.3435
G01 X44.5407 Y14.4197
G01 X44.4680 Y14.4856
G01 X44.3854 Y14.5472
G01 X44.2971 Y14.6004
G01 X44.1995 Y14.6465
G01 X44.1024 Y14.6810
G01 X44.0024 Y14.7058
G01 X43.9005 Y14.7207
G01 X43.8025 Y14.7255
G01 X43.6946 Y14.7202
G01 X43.5928 Y14.7048
G01 X43.4976 Y14.6810
G01 X43.3959 Y14.6446
G01 X43.3072 Y14.6027
G01 X43.2187 Y14.5499
G01 X43.1320 Y14.4856
G01 X43.0593 Y14.4197
G01 X42.9899 Y14.3435
G01 X42.9284 Y14.2609
G01 X42.8903 Y14.1979
G01 X42.8448 Y14.1954
G01 X42.7866 Y14.1868
G01 X42.7199 Y14.1701
G01 X42.6599 Y14.1484
G01 X42.6066 Y14.1232
G01 X42.5477 Y14.0878
G01 X42.4966 Y14.0496
G01 X42.4512 Y14.0084
G01 X35.0216 Y6.5789
G01 X26.9291 Y6.5789
G01 X26.8916 Y6.6409
G01 X26.8332 Y6.7197
G01 X26.7607 Y6.7997
G01 X26.6842 Y6.8687
G01 X26.6054 Y6.9272
G01 X26.5171 Y6.9804
G01 X26.4195 Y7.0265
G01 X26.3224 Y7.0610
G01 X26.2224 Y7.0858
G01 X26.1254 Y7.1002
G01 X26.0225 Y7.1055
G01 X25.9146 Y7.1002
G01 X25.8128 Y7.0848
G01 X25.7176 Y7.0610
G01 X25.6205 Y7.0265
G01 X25.5272 Y6.9827
G01 X25.4346 Y6.9272
G01 X25.3520 Y6.8656
G01 X25.2758 Y6.7962
G01 X25.2099 Y6.7235
G01 X25.1965 Y6.7059
G01 X13.5894 Y6.7059
G01 X6.7421 Y13.5531
G01 X6.7451 Y13.5751
G01 X6.7499 Y13.6731
G01 X6.7451 Y13.7760
G01 X6.7302 Y13.8780
G01 X6.7040 Y13.9827
G01 X6.6691 Y14.0796
G01 X6.6248 Y14.1727
G01 X6.5744 Y14.2568
G01 X6.5132 Y14.3397
G01 X6.4442 Y14.4162
G01 X6.3680 Y14.4856
G01 X6.2813 Y14.5499
G01 X6.1928 Y14.6027
G01 X6.0995 Y14.6465
G01 X6.0071 Y14.6796
G01 X5.9072 Y14.7048
G01 X5.8054 Y14.7202
G01 X5.6975 Y14.7255
G01 X5.5946 Y14.7202
G01 X5.4928 Y14.7048
G01 X5.3929 Y14.6796
G01 X5.2959 Y14.6446
G01 X5.2029 Y14.6004
G01 X5.1146 Y14.5472
G01 X5.0320 Y14.4856
G01 X4.9558 Y14.4162
G01 X4.8868 Y14.3397
G01 X4.8256 Y14.2568
G01 X4.7729 Y14.1683
G01 X4.7290 Y14.0751
G01 X4.6946 Y13.9780
G01 X4.6698 Y13.8780
G01 X4.6549 Y13.7760
G01 X4.6501 Y13.6731
G01 X4.6554 Y13.5702
G01 X4.6707 Y13.4683
G01 X4.6960 Y13.3684
G01 X4.7309 Y13.2715
G01 X4.7752 Y13.1784
G01 X4.8284 Y13.0902
G01 X4.8899 Y13.0076
G01 X4.9593 Y12.9314
G01 X5.0358 Y12.8624
G01 X5.1187 Y12.8012
G01 X5.2072 Y12.7484
G01 X5.3005 Y12.7046
G01 X5.3976 Y12.6701
G01 X5.4976 Y12.6453
G01 X5.5995 Y12.6304
G01 X5.7025 Y12.6256
G01 X5.8005 Y12.6304
G01 X5.8224 Y12.6334
G00 Z2.0000
G00 X6.4938 Y19.3704
G01 F60.00
G01 Z-0.9000
G01 F120.00
G01 X6.4407 Y19.4286
G01 X6.3642 Y19.4976
G01 X6.2813 Y19.5588
G01 X6.1928 Y19.6116
G01 X6.0995 Y19.6554
G01 X6.0024 Y19.6899
G01 X5.9024 Y19.7147
G01 X5.8005 Y19.7296
G01 X5.6975 Y19.7344
G01 X5.5946 Y19.7291
G01 X5.4928 Y19.7137
G01 X5.3929 Y19.6885
G01 X5.2959 Y19.6535
G01 X5.2029 Y19.6092
G01 X5.1146 Y19.5561
G01 X5.0320 Y19.4945
G01 X4.9558 Y19.4251
G01 X4.8868 Y19.3486
G01 X4.8256 Y19.2657
G01 X4.7729 Y19.1772
G01 X4.7290 Y19.0840
G01 X4.6946 Y18.9869
G01 X4.6698 Y18.8869
G01 X4.6549 Y18.7849
G01 X4.6501 Y18.6820
G01 X4.6554 Y18.5791
G01 X4.6707 Y18.4772
G01 X4.6960 Y18.3773
G01 X4.7309 Y18.2804
G01 X4.7752 Y18.1873
G01 X4.8284 Y18.0991
G01 X4.8899 Y18.0165
G01 X4.9593 Y17.9403
G01 X5.0320 Y17.8744
G01 X5.1146 Y17.8128
G01 X5.2029 Y17.7596
G01 X5.2959 Y17.7154
G01 X5.3929 Y17.6804
G01 X5.4976 Y17.6542
G01 X5.5995 Y17.6393
G01 X5.7025 Y17.6345
G01 X5.8054 Y17.6398
G01 X5.9072 Y17.6552
G01 X6.0071 Y17.6804
G01 X6.0995 Y17.7135
G01 X6.1928 Y17.7573
G01 X6.2813 Y17.8101
G01 X6.3680 Y17.8744
G01 X6.4442 Y17.9438
G01 X6.5101 Y18.0165
G01 X6.5499 Y18.0698
G01 X25.1965 Y18.0698
G01 X25.2099 Y18.0521
G01 X25.2793 Y17.9759
G01 X25.3520 Y17.9100
G01 X25.3697 Y17.8966
G01 X25.3697 Y11.8879
G01 X25.3520 Y11.8745
G01 X25.2793 Y11.8086
G01 X25.2068 Y11.7286
G01 X25.1456 Y11.6457
G01 X25.0952 Y11.5615
G01 X25.0509 Y11.4685
G01 X25.0146 Y11.3669
G01 X24.9907 Y11.2717
G01 X24.9754 Y11.1698
G01 X24.9701 Y11.0620
G01 X24.9754 Y10.9591
G01 X24.9907 Y10.8572
G01 X25.0160 Y10.7573
G01 X25.0490 Y10.6649
G01 X25.0929 Y10.5717
G01 X25.1456 Y10.4832
G01 X25.2068 Y10.4003
G01 X25.2793 Y10.3203
G01 X25.3558 Y10.2513
G01 X25.4346 Y10.1928
G01 X25.5229 Y10.1396
G01 X25.6159 Y10.0954
G01 X25.7129 Y10.0604
G01 X25.8128 Y10.0352
G01 X25.9146 Y10.0198
G01 X26.0175 Y10.0145
G01 X26.1205 Y10.0193
G01 X26.2224 Y10.0342
G01 X26.3224 Y10.0590
G01 X26.4195 Y10.0935
G01 X26.5171 Y10.1396
G01 X26.6054 Y10.1928
G01 X26.6880 Y10.2544
G01 X26.7642 Y10.3238
G01 X26.8301 Y10.3965
G01 X26.8916 Y10.4791
G01 X26.9448 Y10.5673
G01 X26.9891 Y10.6604
G01 X27.0240 Y10.7573
G01 X27.0493 Y10.8572
G01 X27.0646 Y10.9591
G01 X27.0699 Y11.0669
G01 X27.0651 Y11.1649
G01 X27.0502 Y11.2669
G01 X27.0240 Y11.3716
G01 X26.9891 Y11.4685
G01 X26.9448 Y11.5615
G01 X26.8944 Y11.6457
G01 X26.8332 Y11.7286
G01 X26.7607 Y11.8086
G01 X26.6880 Y11.8745
G01 X26.6703 Y11.8879
G01 X26.6703 Y17.8966
G01 X26.6879 Y17.9100
G01 X26.7641 Y17.9794
G01 X26.8300 Y18.0521
G01 X26.8434 Y18.0698
G01 X42.9501 Y18.0698
G01 X42.9899 Y18.0165
G01 X43.0558 Y17.9438
G01 X43.1320 Y17.8744
G01 X43.2187 Y17.8101
G01 X43.3072 Y17.7573
G01 X43.4005 Y17.7135
G01 X43.4976 Y17.6790
G01 X43.5928 Y17.6552
G01 X43.6946 Y17.6398
G01 X43.8025 Y17.6345
G01 X43.9054 Y17.6398
G01 X44.0072 Y17.6552
G01 X44.1071 Y17.6804
G01 X44.2041 Y17.7154
G01 X44.2928 Y17.7573
G01 X44.3813 Y17.8101
G01 X44.4642 Y17.8713
G01 X44.5407 Y17.9403
G01 X44.6101 Y18.0165
G01 X44.6716 Y18.0991
G01 X44.7248 Y18.1873
G01 X44.7691 Y18.2804
G01 X44.8040 Y18.3773
G01 X44.8293 Y18.4772
G01 X44.8446 Y18.5791
G01 X44.8499 Y18.6820
G01 X44.8451 Y18.7849
G01 X44.8302 Y18.8869
G01 X44.8054 Y18.9869
G01 X44.7710 Y19.0840
G01 X44.7271 Y19.1772
G01 X44.6744 Y19.2657
G01 X44.6132 Y19.3486
G01 X44.5442 Y19.4251
G01 X44.4680 Y19.4945
G01 X44.3854 Y19.5561
G01 X44.2971 Y19.6092
G01 X44.2041 Y19.6535
G01 X44.1071 Y19.6885
G01 X44.0072 Y19.7137
G01 X43.9054 Y19.7291
G01 X43.8025 Y19.7344
G01 X43.6995 Y19.7296
G01 X43.5976 Y19.7147
G01 X43.4929 Y19.6885
G01 X43.3959 Y19.6535
G01 X43.3029 Y19.6092
G01 X43.2146 Y19.5561
G01 X43.1320 Y19.4945
G01 X43.0593 Y19.4286
G01 X43.0062 Y19.3704
G01 X26.8434 Y19.3704
G01 X26.8300 Y19.3880
G01 X26.7641 Y19.4608
G01 X26.6879 Y19.5301
G01 X26.6053 Y19.5917
G01 X26.5127 Y19.6472
G01 X26.4195 Y19.6910
G01 X26.3271 Y19.7241
G01 X26.2272 Y19.7494
G01 X26.1253 Y19.7647
G01 X26.0224 Y19.7700
G01 X25.9195 Y19.7652
G01 X25.8127 Y19.7494
G01 X25.7128 Y19.7241
G01 X25.6204 Y19.6910
G01 X25.5272 Y19.6472
G01 X25.4387 Y19.5944
G01 X25.3520 Y19.5301
G01 X25.2758 Y19.4608
G01 X25.2099 Y19.3880
G01 X25.1965 Y19.3704
G01 X6.4938 Y19.3704
G00 Z2.0000
G00 X6.5337 Y19.4604
G01 F60.00
G01 Z-0.9000
G01 F120.00
G01 X6.5108 Y19.4856
G01 X6.5011 Y19.4953
G01 X6.4284 Y19.5612
G01 X6.4178 Y19.5699
G01 X6.3390 Y19.6284
G01 X6.3275 Y19.6360
G01 X6.2434 Y19.6864
G01 X6.2313 Y19.6929
G01 X6.1425 Y19.7349
G01 X6.1298 Y19.7401
G01 X6.0374 Y19.7732
G01 X6.0243 Y19.7772
G01 X5.9291 Y19.8010
G01 X5.9156 Y19.8037
G01 X5.8186 Y19.8181
G01 X5.8049 Y19.8195
G01 X5.7069 Y19.8243
G01 X5.6931 Y19.8243
G01 X5.5951 Y19.8195
G01 X5.5814 Y19.8181
G01 X5.4844 Y19.8037
G01 X5.4709 Y19.8010
G01 X5.3757 Y19.7772
G01 X5.3626 Y19.7732
G01 X5.2702 Y19.7401
G01 X5.2575 Y19.7349
G01 X5.1687 Y19.6929
G01 X5.1566 Y19.6864
G01 X5.0725 Y19.6360
G01 X5.0610 Y19.6284
G01 X4.9822 Y19.5699
G01 X4.9716 Y19.5612
G01 X4.8989 Y19.4953
G01 X4.8892 Y19.4856
G01 X4.8233 Y19.4129
G01 X4.8145 Y19.4022
G01 X4.7561 Y19.3234
G01 X4.7484 Y19.3120
G01 X4.6980 Y19.2278
G01 X4.6915 Y19.2157
G01 X4.6496 Y19.1270
G01 X4.6443 Y19.1143
G01 X4.6112 Y19.0219
G01 X4.6073 Y19.0087
G01 X4.5834 Y18.9135
G01 X4.5807 Y18.9001
G01 X4.5663 Y18.8030
G01 X4.5650 Y18.7893
G01 X4.5602 Y18.6913
G01 X4.5602 Y18.6776
G01 X4.5650 Y18.5796
G01 X4.5663 Y18.5659
G01 X4.5807 Y18.4688
G01 X4.5834 Y18.4553
G01 X4.6073 Y18.3601
G01 X4.6112 Y18.3470
G01 X4.6443 Y18.2546
G01 X4.6496 Y18.2419
G01 X4.6915 Y18.1532
G01 X4.6980 Y18.1411
G01 X4.7484 Y18.0569
G01 X4.7561 Y18.0455
G01 X4.8145 Y17.9666
G01 X4.8233 Y17.9560
G01 X4.8892 Y17.8833
G01 X4.8989 Y17.8736
G01 X4.9716 Y17.8077
G01 X4.9822 Y17.7990
G01 X5.0610 Y17.7405
G01 X5.0725 Y17.7329
G01 X5.1566 Y17.6824
G01 X5.1687 Y17.6760
G01 X5.2575 Y17.6340
G01 X5.2702 Y17.6287
G01 X5.3626 Y17.5957
G01 X5.3757 Y17.5917
G01 X5.4709 Y17.5679
G01 X5.4844 Y17.5652
G01 X5.5814 Y17.5508
G01 X5.5951 Y17.5494
G01 X5.6931 Y17.5446
G01 X5.7069 Y17.5446
G01 X5.8049 Y17.5494
G01 X5.8186 Y17.5508
G01 X5.9156 Y17.5652
G01 X5.9291 Y17.5679
G01 X6.0243 Y17.5917
G01 X6.0374 Y17.5957
G01 X6.1298 Y17.6287
G01 X6.1425 Y17.6340
G01 X6.2313 Y17.6760
G01 X6.2434 Y17.6824
G01 X6.3275 Y17.7329
G01 X6.3390 Y17.7405
G01 X6.4178 Y17.7990
G01 X6.4284 Y17.8077
G01 X6.5011 Y17.8736
G01 X6.5108 Y17.8833
G01 X6.5767 Y17.9560
G01 X6.5855 Y17.9666
G01 X6.5952 Y17.9798
G01 X25.1540 Y17.9798
G01 X25.2091 Y17.9189
G01 X25.2188 Y17.9092
G01 X25.2797 Y17.8541
G01 X25.2797 Y11.9304
G01 X25.2189 Y11.8753
G01 X25.2092 Y11.8656
G01 X25.1433 Y11.7929
G01 X25.1345 Y11.7822
G01 X25.0761 Y11.7034
G01 X25.0684 Y11.6920
G01 X25.0180 Y11.6078
G01 X25.0115 Y11.5957
G01 X24.9696 Y11.5070
G01 X24.9643 Y11.4943
G01 X24.9312 Y11.4019
G01 X24.9273 Y11.3887
G01 X24.9034 Y11.2935
G01 X24.9007 Y11.2801
G01 X24.8863 Y11.1830
G01 X24.8850 Y11.1693
G01 X24.8802 Y11.0713
G01 X24.8802 Y11.0576
G01 X24.8850 Y10.9596
G01 X24.8863 Y10.9459
G01 X24.9007 Y10.8488
G01 X24.9034 Y10.8353
G01 X24.9273 Y10.7401
G01 X24.9312 Y10.7270
G01 X24.9643 Y10.6346
G01 X24.9696 Y10.6219
G01 X25.0115 Y10.5332
G01 X25.0180 Y10.5211
G01 X25.0684 Y10.4369
G01 X25.0761 Y10.4255
G01 X25.1345 Y10.3466
G01 X25.1433 Y10.3360
G01 X25.2092 Y10.2633
G01 X25.2189 Y10.2536
G01 X25.2916 Y10.1877
G01 X25.3022 Y10.1790
G01 X25.3810 Y10.1205
G01 X25.3925 Y10.1129
G01 X25.4766 Y10.0624
G01 X25.4887 Y10.0560
G01 X25.5775 Y10.0140
G01 X25.5902 Y10.0087
G01 X25.6826 Y9.9757
G01 X25.6957 Y9.9717
G01 X25.7909 Y9.9479
G01 X25.8044 Y9.9452
G01 X25.9014 Y9.9308
G01 X25.9151 Y9.9294
G01 X26.0131 Y9.9246
G01 X26.0269 Y9.9246
G01 X26.1249 Y9.9294
G01 X26.1386 Y9.9308
G01 X26.2356 Y9.9452
G01 X26.2491 Y9.9479
G01 X26.3443 Y9.9717
G01 X26.3574 Y9.9757
G01 X26.4498 Y10.0087
G01 X26.4625 Y10.0140
G01 X26.5513 Y10.0560
G01 X26.5634 Y10.0624
G01 X26.6475 Y10.1129
G01 X26.6590 Y10.1205
G01 X26.7378 Y10.1790
G01 X26.7484 Y10.1877
G01 X26.8211 Y10.2536
G01 X26.8308 Y10.2633
G01 X26.8967 Y10.3360
G01 X26.9055 Y10.3466
G01 X26.9639 Y10.4255
G01 X26.9716 Y10.4369
G01 X27.0220 Y10.5211
G01 X27.0285 Y10.5332
G01 X27.0704 Y10.6219
G01 X27.0757 Y10.6346
G01 X27.1088 Y10.7270
G01 X27.1127 Y10.7401
G01 X27.1366 Y10.8353
G01 X27.1393 Y10.8488
G01 X27.1537 Y10.9459
G01 X27.1550 Y10.9596
G01 X27.1598 Y11.0576
G01 X27.1598 Y11.0713
G01 X27.1550 Y11.1693
G01 X27.1537 Y11.1830
G01 X27.1393 Y11.2801
G01 X27.1366 Y11.2935
G01 X27.1127 Y11.3887
G01 X27.1088 Y11.4019
G01 X27.0757 Y11.4943
G01 X27.0704 Y11.5070
G01 X27.0285 Y11.5957
G01 X27.0220 Y11.6078
G01 X26.9716 Y11.6920
G01 X26.9639 Y11.7034
G01 X26.9055 Y11.7822
G01 X26.8967 Y11.7929
G01 X26.8308 Y11.8656
G01 X26.8211 Y11.8753
G01 X26.7603 Y11.9304
G01 X26.7603 Y17.8541
G01 X26.8211 Y17.9092
G01 X26.8308 Y17.9189
G01 X26.8859 Y17.9798
G01 X42.9048 Y17.9798
G01 X42.9145 Y17.9666
G01 X42.9233 Y17.9560
G01 X42.9892 Y17.8833
G01 X42.9989 Y17.8736
G01 X43.0716 Y17.8077
G01 X43.0822 Y17.7990
G01 X43.1610 Y17.7405
G01 X43.1725 Y17.7329
G01 X43.2566 Y17.6824
G01 X43.2687 Y17.6760
G01 X43.3575 Y17.6340
G01 X43.3702 Y17.6287
G01 X43.4626 Y17.5957
G01 X43.4757 Y17.5917
G01 X43.5709 Y17.5679
G01 X43.5844 Y17.5652
G01 X43.6814 Y17.5508
G01 X43.6951 Y17.5494
G01 X43.7931 Y17.5446
G01 X43.8069 Y17.5446
G01 X43.9049 Y17.5494
G01 X43.9186 Y17.5508
G01 X44.0156 Y17.5652
G01 X44.0291 Y17.5679
G01 X44.1243 Y17.5917
G01 X44.1374 Y17.5957
G01 X44.2298 Y17.6287
G01 X44.2425 Y17.6340
G01 X44.3313 Y17.6760
G01 X44.3434 Y17.6824
G01 X44.4275 Y17.7329
G01 X44.4390 Y17.7405
G01 X44.5178 Y17.7990
G01 X44.5284 Y17.8077
G01 X44.6011 Y17.8736
G01 X44.6108 Y17.8833
G01 X44.6767 Y17.9560
G01 X44.6855 Y17.9666
G01 X44.7439 Y18.0455
G01 X44.7516 Y18.0569
G01 X44.8020 Y18.1411
G01 X44.8085 Y18.1532
G01 X44.8504 Y18.2419
G01 X44.8557 Y18.2546
G01 X44.8888 Y18.3470
G01 X44.8927 Y18.3601
G01 X44.9166 Y18.4553
G01 X44.9193 Y18.4688
G01 X44.9337 Y18.5659
G01 X44.9350 Y18.5796
G01 X44.9398 Y18.6776
G01 X44.9398 Y18.6913
G01 X44.9350 Y18.7893
G01 X44.9337 Y18.8030
G01 X44.9193 Y18.9001
G01 X44.9166 Y18.9135
G01 X44.8927 Y19.0087
G01 X44.8888 Y19.0219
G01 X44.8557 Y19.1143
G01 X44.8504 Y19.1270
G01 X44.8085 Y19.2157
G01 X44.8020 Y19.2278
G01 X44.7516 Y19.3120
G01 X44.7439 Y19.3234
G01 X44.6855 Y19.4022
G01 X44.6767 Y19.4129
G01 X44.6108 Y19.4856
G01 X44.6011 Y19.4953
G01 X44.5284 Y19.5612
G01 X44.5178 Y19.5699
G01 X44.4390 Y19.6284
G01 X44.4275 Y19.6360
G01 X44.3434 Y19.6864
G01 X44.3313 Y19.6929
G01 X44.2425 Y19.7349
G01 X44.2298 Y19.7401
G01 X44.1374 Y19.7732
G01 X44.1243 Y19.7772
G01 X44.0291 Y19.8010
G01 X44.0156 Y19.8037
G01 X43.9186 Y19.8181
G01 X43.9049 Y19.8195
G01 X43.8069 Y19.8243
G01 X43.7931 Y19.8243
G01 X43.6951 Y19.8195
G01 X43.6814 Y19.8181
G01 X43.5844 Y19.8037
G01 X43.5709 Y19.8010
G01 X43.4757 Y19.7772
G01 X43.4626 Y19.7732
G01 X43.3702 Y19.7401
G01 X43.3575 Y19.7349
G01 X43.2687 Y19.6929
G01 X43.2566 Y19.6864
G01 X43.1725 Y19.6360
G01 X43.1610 Y19.6284
G01 X43.0822 Y19.5699
G01 X43.0716 Y19.5612
G01 X42.9989 Y19.4953
G01 X42.9892 Y19.4856
G01 X42.9663 Y19.4604
G01 X26.8859 Y19.4604
G01 X26.8308 Y19.5212
G01 X26.8211 Y19.5309
G01 X26.7484 Y19.5968
G01 X26.7378 Y19.6055
G01 X26.6589 Y19.6640
G01 X26.6475 Y19.6716
G01 X26.5633 Y19.7221
G01 X26.5512 Y19.7285
G01 X26.4625 Y19.7705
G01 X26.4498 Y19.7758
G01 X26.3574 Y19.8088
G01 X26.3443 Y19.8128
G01 X26.2491 Y19.8367
G01 X26.2356 Y19.8393
G01 X26.1385 Y19.8537
G01 X26.1249 Y19.8551
G01 X26.0268 Y19.8599
G01 X26.0131 Y19.8599
G01 X25.9151 Y19.8551
G01 X25.9014 Y19.8537
G01 X25.8043 Y19.8393
G01 X25.7909 Y19.8367
G01 X25.6957 Y19.8128
G01 X25.6825 Y19.8088
G01 X25.5901 Y19.7758
G01 X25.5774 Y19.7705
G01 X25.4887 Y19.7285
G01 X25.4766 Y19.7221
G01 X25.3924 Y19.6716
G01 X25.3810 Y19.6640
G01 X25.3022 Y19.6055
G01 X25.2916 Y19.5968
G01 X25.2188 Y19.5309
G01 X25.2091 Y19.5212
G01 X25.1540 Y19.4604
G01 X6.5337 Y19.4604
G00 Z2.0000
G00 X6.5732 Y19.5504
G01 F60.00
G01 Z-0.9000
G01 F120.00
G01 X6.5616 Y19.5620
G01 X6.4889 Y19.6279
G01 X6.4714 Y19.6422
G01 X6.3926 Y19.7006
G01 X6.3738 Y19.7132
G01 X6.2896 Y19.7636
G01 X6.2697 Y19.7743
G01 X6.1810 Y19.8162
G01 X6.1602 Y19.8249
G01 X6.0678 Y19.8579
G01 X6.0462 Y19.8645
G01 X5.9510 Y19.8883
G01 X5.9288 Y19.8927
G01 X5.8318 Y19.9071
G01 X5.8093 Y19.9093
G01 X5.7113 Y19.9142
G01 X5.6887 Y19.9142
G01 X5.5907 Y19.9093
G01 X5.5682 Y19.9071
G01 X5.4712 Y19.8927
G01 X5.4490 Y19.8883
G01 X5.3538 Y19.8645
G01 X5.3322 Y19.8579
G01 X5.2398 Y19.8249
G01 X5.2190 Y19.8162
G01 X5.1303 Y19.7743
G01 X5.1104 Y19.7636
G01 X5.0262 Y19.7132
G01 X5.0074 Y19.7006
G01 X4.9286 Y19.6422
G01 X4.9111 Y19.6279
G01 X4.8384 Y19.5620
G01 X4.8225 Y19.5460
G01 X4.7566 Y19.4733
G01 X4.7423 Y19.4558
G01 X4.6838 Y19.3770
G01 X4.6713 Y19.3583
G01 X4.6208 Y19.2741
G01 X4.6102 Y19.2542
G01 X4.5682 Y19.1655
G01 X4.5596 Y19.1446
G01 X4.5265 Y19.0522
G01 X4.5200 Y19.0306
G01 X4.4961 Y18.9354
G01 X4.4917 Y18.9133
G01 X4.4773 Y18.8162
G01 X4.4751 Y18.7937
G01 X4.4703 Y18.6957
G01 X4.4703 Y18.6732
G01 X4.4751 Y18.5751
G01 X4.4773 Y18.5527
G01 X4.4917 Y18.4556
G01 X4.4961 Y18.4335
G01 X4.5200 Y18.3383
G01 X4.5265 Y18.3167
G01 X4.5596 Y18.2243
G01 X4.5682 Y18.2034
G01 X4.6102 Y18.1147
G01 X4.6208 Y18.0948
G01 X4.6713 Y18.0106
G01 X4.6838 Y17.9919
G01 X4.7423 Y17.9130
G01 X4.7566 Y17.8956
G01 X4.8225 Y17.8229
G01 X4.8384 Y17.8069
G01 X4.9111 Y17.7410
G01 X4.9286 Y17.7267
G01 X5.0074 Y17.6682
G01 X5.0262 Y17.6557
G01 X5.1104 Y17.6052
G01 X5.1303 Y17.5946
G01 X5.2190 Y17.5526
G01 X5.2398 Y17.5440
G01 X5.3322 Y17.5109
G01 X5.3538 Y17.5044
G01 X5.4490 Y17.4805
G01 X5.4712 Y17.4761
G01 X5.5682 Y17.4617
G01 X5.5907 Y17.4595
G01 X5.6887 Y17.4547
G01 X5.7113 Y17.4547
G01 X5.8093 Y17.4595
G01 X5.8318 Y17.4617
G01 X5.9288 Y17.4761
G01 X5.9510 Y17.4805
G01 X6.0462 Y17.5044
G01 X6.0678 Y17.5109
G01 X6.1602 Y17.5440
G01 X6.1810 Y17.5526
G01 X6.2697 Y17.5946
G01 X6.2896 Y17.6052
G01 X6.3738 Y17.6557
G01 X6.3926 Y17.6682
G01 X6.4714 Y17.7267
G01 X6.4889 Y17.7410
G01 X6.5616 Y17.8069
G01 X6.5775 Y17.8229
G01 X6.6382 Y17.8898
G01 X25.1141 Y17.8898
G01 X25.1424 Y17.8585
G01 X25.1584 Y17.8425
G01 X25.1897 Y17.8142
G01 X25.1897 Y11.9703
G01 X25.1584 Y11.9420
G01 X25.1425 Y11.9260
G01 X25.0766 Y11.8533
G01 X25.0623 Y11.8358
G01 X25.0038 Y11.7570
G01 X24.9913 Y11.7383
G01 X24.9408 Y11.6541
G01 X24.9302 Y11.6342
G01 X24.8882 Y11.5455
G01 X24.8796 Y11.5246
G01 X24.8465 Y11.4322
G01 X24.8400 Y11.4106
G01 X24.8161 Y11.3154
G01 X24.8117 Y11.2933
G01 X24.7973 Y11.1962
G01 X24.7951 Y11.1737
G01 X24.7903 Y11.0757
G01 X24.7903 Y11.0532
G01 X24.7951 Y10.9551
G01 X24.7973 Y10.9327
G01 X24.8117 Y10.8356
G01 X24.8161 Y10.8135
G01 X24.8400 Y10.7183
G01 X24.8465 Y10.6967
G01 X24.8796 Y10.6043
G01 X24.8882 Y10.5834
G01 X24.9302 Y10.4947
G01 X24.9408 Y10.4748
G01 X24.9913 Y10.3906
G01 X25.0038 Y10.3719
G01 X25.0623 Y10.2930
G01 X25.0766 Y10.2756
G01 X25.1425 Y10.2029
G01 X25.1584 Y10.1869
G01 X25.2311 Y10.1210
G01 X25.2486 Y10.1067
G01 X25.3274 Y10.0482
G01 X25.3462 Y10.0357
G01 X25.4304 Y9.9852
G01 X25.4503 Y9.9746
G01 X25.5390 Y9.9326
G01 X25.5598 Y9.9240
G01 X25.6522 Y9.8909
G01 X25.6738 Y9.8844
G01 X25.7690 Y9.8605
G01 X25.7912 Y9.8561
G01 X25.8882 Y9.8417
G01 X25.9107 Y9.8395
G01 X26.0087 Y9.8347
G01 X26.0313 Y9.8347
G01 X26.1293 Y9.8395
G01 X26.1518 Y9.8417
G01 X26.2488 Y9.8561
G01 X26.2710 Y9.8605
G01 X26.3662 Y9.8844
G01 X26.3878 Y9.8909
G01 X26.4802 Y9.9240
G01 X26.5010 Y9.9326
G01 X26.5897 Y9.9746
G01 X26.6096 Y9.9852
G01 X26.6938 Y10.0357
G01 X26.7126 Y10.0482
G01 X26.7914 Y10.1067
G01 X26.8089 Y10.1210
G01 X26.8816 Y10.1869
G01 X26.8975 Y10.2029
G01 X26.9634 Y10.2756
G01 X26.9777 Y10.2930
G01 X27.0362 Y10.3719
G01 X27.0487 Y10.3906
G01 X27.0992 Y10.4748
G01 X27.1098 Y10.4947
G01 X27.1518 Y10.5834
G01 X27.1604 Y10.6043
G01 X27.1935 Y10.6967
G01 X27.2000 Y10.7183
G01 X27.2239 Y10.8135
G01 X27.2283 Y10.8356
G01 X27.2427 Y10.9327
G01 X27.2449 Y10.9551
G01 X27.2497 Y11.0532
G01 X27.2497 Y11.0757
G01 X27.2449 Y11.1737
G01 X27.2427 Y11.1962
G01 X27.2283 Y11.2933
G01 X27.2239 Y11.3154
G01 X27.2000 Y11.4106
G01 X27.1935 Y11.4322
G01 X27.1604 Y11.5246
G01 X27.1518 Y11.5455
G01 X27.1098 Y11.6342
G01 X27.0992 Y11.6541
G01 X27.0487 Y11.7383
G01 X27.0362 Y11.7570
G01 X26.9777 Y11.8358
G01 X26.9634 Y11.8533
G01 X26.8975 Y11.9260
G01 X26.8816 Y11.9420
G01 X26.8503 Y11.9703
G01 X26.8503 Y17.8142
G01 X26.8815 Y17.8425
G01 X26.8975 Y17.8585
G01 X26.9258 Y17.8898
G01 X42.8618 Y17.8898
G01 X42.9225 Y17.8229
G01 X42.9384 Y17.8069
G01 X43.0111 Y17.7410
G01 X43.0286 Y17.7267
G01 X43.1074 Y17.6682
G01 X43.1262 Y17.6557
G01 X43.2104 Y17.6052
G01 X43.2303 Y17.5946
G01 X43.3190 Y17.5526
G01 X43.3398 Y17.5440
G01 X43.4322 Y17.5109
G01 X43.4538 Y17.5044
G01 X43.5490 Y17.4805
G01 X43.5712 Y17.4761
G01 X43.6682 Y17.4617
G01 X43.6907 Y17.4595
G01 X43.7887 Y17.4547
G01 X43.8113 Y17.4547
G01 X43.9093 Y17.4595
G01 X43.9318 Y17.4617
G01 X44.0288 Y17.4761
G01 X44.0510 Y17.4805
G01 X44.1462 Y17.5044
G01 X44.1678 Y17.5109
G01 X44.2602 Y17.5440
G01 X44.2810 Y17.5526
G01 X44.3697 Y17.5946
G01 X44.3896 Y17.6052
G01 X44.4738 Y17.6557
G01 X44.4926 Y17.6682
G01 X44.5714 Y17.7267
G01 X44.5889 Y17.7410
G01 X44.6616 Y17.8069
G01 X44.6775 Y17.8229
G01 X44.7434 Y17.8956
G01 X44.7577 Y17.9130
G01 X44.8162 Y17.9919
G01 X44.8287 Y18.0106
G01 X44.8792 Y18.0948
G01 X44.8898 Y18.1147
G01 X44.9318 Y18.2034
G01 X44.9404 Y18.2243
G01 X44.9735 Y18.3167
G01 X44.9800 Y18.3383
G01 X45.0039 Y18.4335
G01 X45.0083 Y18.4556
G01 X45.0227 Y18.5527
G01 X45.0249 Y18.5751
G01 X45.0297 Y18.6732
G01 X45.0297 Y18.6957
G01 X45.0249 Y18.7937
G01 X45.0227 Y18.8162
G01 X45.0083 Y18.9133
G01 X45.0039 Y18.9354
G01 X44.9800 Y19.0306
G01 X44.9735 Y19.0522
G01 X44.9404 Y19.1446
G01 X44.9318 Y19.1655
G01 X44.8898 Y19.2542
G01 X44.8792 Y19.2741
G01 X44.8287 Y19.3583
G01 X44.8162 Y19.3770
G01 X44.7577 Y19.4558
G01 X44.7434 Y19.4733
G01 X44.6775 Y19.5460
G01 X44.6616 Y19.5620
G01 X44.5889 Y19.6279
G01 X44.5714 Y19.6422
G01 X44.4926 Y19.7006
G01 X44.4738 Y19.7132
G01 X44.3896 Y19.7636
G01 X44.3697 Y19.7743
G01 X44.2810 Y19.8162
G01 X44.2602 Y19.8249
G01 X44.1678 Y19.8579
G01 X44.1462 Y19.8645
G01 X44.0510 Y19.8883
G01 X44.0288 Y19.8927
G01 X43.9318 Y19.9071
G01 X43.9093 Y19.9093
G01 X43.8113 Y19.9142
G01 X43.7887 Y19.9142
G01 X43.6907 Y19.9093
G01 X43.6682 Y19.9071
G01 X43.5712 Y19.8927
G01 X43.5490 Y19.8883
G01 X43.4538 Y19.8645
G01 X43.4322 Y19.8579
G01 X43.3398 Y19.8249
G01 X43.3190 Y19.8162
G01 X43.2303 Y19.7743
G01 X43.2104 Y19.7636
G01 X43.1262 Y19.7132
G01 X43.1074 Y19.7006
G01 X43.0286 Y19.6422
G01 X43.0111 Y19.6279
G01 X42.9384 Y19.5620
G01 X42.9268 Y19.5504
G01 X26.9258 Y19.5504
G01 X26.8975 Y19.5816
G01 X26.8815 Y19.5976
G01 X26.8088 Y19.6635
G01 X26.7914 Y19.6778
G01 X26.7126 Y19.7363
G01 X26.6938 Y19.7488
G01 X26.6096 Y19.7993
G01 X26.5897 Y19.8099
G01 X26.5010 Y19.8519
G01 X26.4801 Y19.8605
G01 X26.3877 Y19.8936
G01 X26.3661 Y19.9001
G01 X26.2709 Y19.9240
G01 X26.2488 Y19.9284
G01 X26.1517 Y19.9428
G01 X26.1293 Y19.9450
G01 X26.0313 Y19.9498
G01 X26.0087 Y19.9498
G01 X25.9107 Y19.9450
G01 X25.8882 Y19.9428
G01 X25.7911 Y19.9284
G01 X25.7690 Y19.9240
G01 X25.6738 Y19.9001
G01 X25.6522 Y19.8936
G01 X25.5598 Y19.8605
G01 X25.5389 Y19.8519
G01 X25.4502 Y19.8099
G01 X25.4303 Y19.7993
G01 X25.3462 Y19.7488
G01 X25.3274 Y19.7363
G01 X25.2486 Y19.6778
G01 X25.2311 Y19.6635
G01 X25.1584 Y19.5976
G01 X25.1424 Y19.5816
G01 X25.1141 Y19.5504
G01 X6.5732 Y19.5504
G00 Z2.0000
G00 X6.6091 Y19.6404
G01 F60.00
G01 Z-0.9000
G01 F120.00
G01 X6.5493 Y19.6946
G01 X6.5250 Y19.7145
G01 X6.4462 Y19.7729
G01 X6.4201 Y19.7904
G01 X6.3359 Y19.8408
G01 X6.3082 Y19.8556
G01 X6.2195 Y19.8976
G01 X6.1905 Y19.9096
G01 X6.0981 Y19.9427
G01 X6.0680 Y19.9518
G01 X5.9728 Y19.9756
G01 X5.9420 Y19.9818
G01 X5.8450 Y19.9962
G01 X5.8137 Y19.9992
G01 X5.7157 Y20.0041
G01 X5.6843 Y20.0041
G01 X5.5863 Y19.9992
G01 X5.5550 Y19.9962
G01 X5.4580 Y19.9818
G01 X5.4272 Y19.9756
G01 X5.3320 Y19.9518
G01 X5.3019 Y19.9427
G01 X5.2095 Y19.9096
G01 X5.1805 Y19.8976
G01 X5.0918 Y19.8556
G01 X5.0641 Y19.8408
G01 X4.9799 Y19.7904
G01 X4.9538 Y19.7729
G01 X4.8750 Y19.7145
G01 X4.8507 Y19.6946
G01 X4.7780 Y19.6287
G01 X4.7558 Y19.6064
G01 X4.6899 Y19.5337
G01 X4.6700 Y19.5095
G01 X4.6115 Y19.4306
G01 X4.5941 Y19.4045
G01 X4.5436 Y19.3203
G01 X4.5288 Y19.2927
G01 X4.4868 Y19.2039
G01 X4.4748 Y19.1749
G01 X4.4418 Y19.0825
G01 X4.4326 Y19.0525
G01 X4.4088 Y18.9573
G01 X4.4027 Y18.9265
G01 X4.3883 Y18.8294
G01 X4.3852 Y18.7982
G01 X4.3804 Y18.7001
G01 X4.3804 Y18.6687
G01 X4.3852 Y18.5707
G01 X4.3883 Y18.5395
G01 X4.4027 Y18.4424
G01 X4.4088 Y18.4116
G01 X4.4326 Y18.3164
G01 X4.4418 Y18.2864
G01 X4.4748 Y18.1940
G01 X4.4868 Y18.1649
G01 X4.5288 Y18.0762
G01 X4.5436 Y18.0485
G01 X4.5941 Y17.9644
G01 X4.6115 Y17.9382
G01 X4.6700 Y17.8594
G01 X4.6899 Y17.8351
G01 X4.7558 Y17.7624
G01 X4.7780 Y17.7402
G01 X4.8507 Y17.6743
G01 X4.8750 Y17.6544
G01 X4.9538 Y17.5959
G01 X4.9799 Y17.5785
G01 X5.0641 Y17.5280
G01 X5.0918 Y17.5132
G01 X5.1805 Y17.4713
G01 X5.2095 Y17.4593
G01 X5.3019 Y17.4262
G01 X5.3320 Y17.4171
G01 X5.4272 Y17.3932
G01 X5.4580 Y17.3871
G01 X5.5550 Y17.3727
G01 X5.5863 Y17.3696
G01 X5.6843 Y17.3648
G01 X5.7157 Y17.3648
G01 X5.8137 Y17.3696
G01 X5.8450 Y17.3727
G01 X5.9420 Y17.3871
G01 X5.9728 Y17.3932
G01 X6.0680 Y17.4171
G01 X6.0981 Y17.4262
G01 X6.1905 Y17.4593
G01 X6.2195 Y17.4713
G01 X6.3082 Y17.5132
G01 X6.3359 Y17.5280
G01 X6.4201 Y17.5785
G01 X6.4462 Y17.5959
G01 X6.5250 Y17.6544
G01 X6.5493 Y17.6743
G01 X6.6220 Y17.7402
G01 X6.6442 Y17.7624
G01 X6.6781 Y17.7998
G01 X25.0742 Y17.7998
G01 X25.0997 Y17.7743
G01 X25.0997 Y12.0102
G01 X25.0758 Y11.9864
G01 X25.0099 Y11.9137
G01 X24.9900 Y11.8895
G01 X24.9315 Y11.8106
G01 X24.9141 Y11.7845
G01 X24.8636 Y11.7003
G01 X24.8488 Y11.6727
G01 X24.8068 Y11.5839
G01 X24.7948 Y11.5549
G01 X24.7618 Y11.4625
G01 X24.7526 Y11.4325
G01 X24.7288 Y11.3373
G01 X24.7227 Y11.3065
G01 X24.7083 Y11.2094
G01 X24.7052 Y11.1782
G01 X24.7004 Y11.0801
G01 X24.7004 Y11.0487
G01 X24.7052 Y10.9507
G01 X24.7083 Y10.9195
G01 X24.7227 Y10.8224
G01 X24.7288 Y10.7916
G01 X24.7526 Y10.6964
G01 X24.7618 Y10.6664
G01 X24.7948 Y10.5740
G01 X24.8068 Y10.5449
G01 X24.8488 Y10.4562
G01 X24.8636 Y10.4285
G01 X24.9141 Y10.3444
G01 X24.9315 Y10.3182
G01 X24.9900 Y10.2394
G01 X25.0099 Y10.2151
G01 X25.0758 Y10.1424
G01 X25.0980 Y10.1202
G01 X25.1707 Y10.0543
G01 X25.1950 Y10.0344
G01 X25.2738 Y9.9759
G01 X25.2999 Y9.9585
G01 X25.3841 Y9.9080
G01 X25.4118 Y9.8932
G01 X25.5005 Y9.8513
G01 X25.5295 Y9.8393
G01 X25.6219 Y9.8062
G01 X25.6520 Y9.7971
G01 X25.7472 Y9.7732
G01 X25.7780 Y9.7671
G01 X25.8750 Y9.7527
G01 X25.9063 Y9.7496
G01 X26.0043 Y9.7448
G01 X26.0357 Y9.7448
G01 X26.1337 Y9.7496
G01 X26.1650 Y9.7527
G01 X26.2620 Y9.7671
G01 X26.2928 Y9.7732
G01 X26.3880 Y9.7971
G01 X26.4181 Y9.8062
G01 X26.5105 Y9.8393
G01 X26.5395 Y9.8513
G01 X26.6282 Y9.8932
G01 X26.6559 Y9.9080
G01 X26.7401 Y9.9585
G01 X26.7662 Y9.9759
G01 X26.8450 Y10.0344
G01 X26.8693 Y10.0543
G01 X26.9420 Y10.1202
G01 X26.9642 Y10.1424
G01 X27.0301 Y10.2151
G01 X27.0500 Y10.2394
G01 X27.1085 Y10.3182
G01 X27.1259 Y10.3444
G01 X27.1764 Y10.4285
G01 X27.1912 Y10.4562
G01 X27.2332 Y10.5449
G01 X27.2452 Y10.5740
G01 X27.2782 Y10.6664
G01 X27.2874 Y10.6964
G01 X27.3112 Y10.7916
G01 X27.3173 Y10.8224
G01 X27.3317 Y10.9195
G01 X27.3348 Y10.9507
G01 X27.3396 Y11.0487
G01 X27.3396 Y11.0801
G01 X27.3348 Y11.1782
G01 X27.3317 Y11.2094
G01 X27.3173 Y11.3065
G01 X27.3112 Y11.3373
G01 X27.2874 Y11.4325
G01 X27.2782 Y11.4625
G01 X27.2452 Y11.5549
G01 X27.2332 Y11.5839
G01 X27.1912 Y11.6727
G01 X27.1764 Y11.7003
G01 X27.1259 Y11.7845
G01 X27.1085 Y11.8106
G01 X27.0500 Y11.8895
G01 X27.0301 Y11.9137
G01 X26.9642 Y11.9864
G01 X26.9403 Y12.0102
G01 X26.9403 Y17.7743
G01 X26.9657 Y17.7998
G01 X42.8220 Y17.7998
G01 X42.8558 Y17.7624
G01 X42.8780 Y17.7402
G01 X42.9507 Y17.6743
G01 X42.9750 Y17.6544
G01 X43.0538 Y17.5959
G01 X43.0799 Y17.5785
G01 X43.1641 Y17.5280
G01 X43.1918 Y17.5132
G01 X43.2805 Y17.4713
G01 X43.3095 Y17.4593
G01 X43.4019 Y17.4262
G01 X43.4320 Y17.4171
G01 X43.5272 Y17.3932
G01 X43.5580 Y17.3871
G01 X43.6550 Y17.3727
G01 X43.6863 Y17.3696
G01 X43.7843 Y17.3648
G01 X43.8157 Y17.3648
G01 X43.9137 Y17.3696
G01 X43.9450 Y17.3727
G01 X44.0420 Y17.3871
G01 X44.0728 Y17.3932
G01 X44.1680 Y17.4171
G01 X44.1981 Y17.4262
G01 X44.2905 Y17.4593
G01 X44.3195 Y17.4713
G01 X44.4082 Y17.5132
G01 X44.4359 Y17.5280
G01 X44.5201 Y17.5785
G01 X44.5462 Y17.5959
G01 X44.6250 Y17.6544
G01 X44.6493 Y17.6743
G01 X44.7220 Y17.7402
G01 X44.7442 Y17.7624
G01 X44.8101 Y17.8351
G01 X44.8300 Y17.8594
G01 X44.8885 Y17.9382
G01 X44.9059 Y17.9644
G01 X44.9564 Y18.0485
G01 X44.9712 Y18.0762
G01 X45.0132 Y18.1649
G01 X45.0252 Y18.1940
G01 X45.0582 Y18.2864
G01 X45.0674 Y18.3164
G01 X45.0912 Y18.4116
G01 X45.0973 Y18.4424
G01 X45.1117 Y18.5395
G01 X45.1148 Y18.5707
G01 X45.1196 Y18.6687
G01 X45.1196 Y18.7001
G01 X45.1148 Y18.7982
G01 X45.1117 Y18.8294
G01 X45.0973 Y18.9265
G01 X45.0912 Y18.9573
G01 X45.0674 Y19.0525
G01 X45.0582 Y19.0825
G01 X45.0252 Y19.1749
G01 X45.0132 Y19.2039
G01 X44.9712 Y19.2927
G01 X44.9564 Y19.3203
G01 X44.9059 Y19.4045
G01 X44.8885 Y19.4306
G01 X44.8300 Y19.5095
G01 X44.8101 Y19.5337
G01 X44.7442 Y19.6064
G01 X44.7220 Y19.6287
G01 X44.6493 Y19.6946
G01 X44.6250 Y19.7145
G01 X44.5462 Y19.7729
G01 X44.5201 Y19.7904
G01 X44.4359 Y19.8408
G01 X44.4082 Y19.8556
G01 X44.3195 Y19.8976
G01 X44.2905 Y19.9096
G01 X44.1981 Y19.9427
G01 X44.1680 Y19.9518
G01 X44.0728 Y19.9756
G01 X44.0420 Y19.9818
G01 X43.9450 Y19.9962
G01 X43.9137 Y19.9992
G01 X43.8157 Y20.0041
G01 X43.7843 Y20.0041
G01 X43.6863 Y19.9992
G01 X43.6550 Y19.9962
G01 X43.5580 Y19.9818
G01 X43.5272 Y19.9756
G01 X43.4320 Y19.9518
G01 X43.4019 Y19.9427
G01 X43.3095 Y19.9096
G01 X43.2805 Y19.8976
G01 X43.1918 Y19.8556
G01 X43.1641 Y19.8408
G01 X43.0799 Y19.7904
G01 X43.0538 Y19.7729
G01 X42.9750 Y19.7145
G01 X42.9507 Y19.6946
G01 X42.8909 Y19.6404
G01 X26.9657 Y19.6404
G01 X26.9420 Y19.6643
G01 X26.8693 Y19.7302
G01 X26.8450 Y19.7501
G01 X26.7662 Y19.8086
G01 X26.7401 Y19.8260
G01 X26.6559 Y19.8765
G01 X26.6282 Y19.8913
G01 X26.5395 Y19.9332
G01 X26.5105 Y19.9452
G01 X26.4181 Y19.9783
G01 X26.3880 Y19.9874
G01 X26.2928 Y20.0113
G01 X26.2620 Y20.0174
G01 X26.1649 Y20.0318
G01 X26.1337 Y20.0349
G01 X26.0357 Y20.0397
G01 X26.0043 Y20.0397
G01 X25.9063 Y20.0349
G01 X25.8750 Y20.0318
G01 X25.7779 Y20.0174
G01 X25.7471 Y20.0113
G01 X25.6519 Y19.9874
G01 X25.6219 Y19.9783
G01 X25.5295 Y19.9452
G01 X25.5005 Y19.9332
G01 X25.4118 Y19.8913
G01 X25.3841 Y19.8765
G01 X25.2999 Y19.8260
G01 X25.2738 Y19.8086
G01 X25.1950 Y19.7501
G01 X25.1707 Y19.7302
G01 X25.0980 Y19.6643
G01 X25.0742 Y19.6404
G01 X6.6091 Y19.6404
G00 Z2.0000
G00 X6.6438 Y19.7304
G01 F60.00
G01 Z-0.9000
G01 F120.00
G01 X6.6097 Y19.7612
G01 X6.5786 Y19.7868
G01 X6.4998 Y19.8452
G01 X6.4664 Y19.8676
G01 X6.3822 Y19.9180
G01 X6.3467 Y19.9370
G01 X6.2580 Y19.9790
G01 X6.2208 Y19.9944
G01 X6.1284 Y20.0274
G01 X6.0899 Y20.0391
G01 X5.9947 Y20.0629
G01 X5.9552 Y20.0708
G01 X5.8582 Y20.0852
G01 X5.8181 Y20.0891
G01 X5.7201 Y20.0939
G01 X5.6799 Y20.0939
G01 X5.5819 Y20.0891
G01 X5.5418 Y20.0852
G01 X5.4448 Y20.0708
G01 X5.4053 Y20.0629
G01 X5.3101 Y20.0391
G01 X5.2716 Y20.0274
G01 X5.1792 Y19.9944
G01 X5.1420 Y19.9790
G01 X5.0533 Y19.9370
G01 X5.0178 Y19.9180
G01 X4.9336 Y19.8676
G01 X4.9002 Y19.8452
G01 X4.8214 Y19.7868
G01 X4.7903 Y19.7612
G01 X4.7176 Y19.6953
G01 X4.6891 Y19.6669
G01 X4.6232 Y19.5942
G01 X4.5977 Y19.5631
G01 X4.5392 Y19.4842
G01 X4.5169 Y19.4508
G01 X4.4664 Y19.3666
G01 X4.4474 Y19.3311
G01 X4.4055 Y19.2424
G01 X4.3901 Y19.2052
G01 X4.3570 Y19.1128
G01 X4.3453 Y19.0743
G01 X4.3215 Y18.9792
G01 X4.3137 Y18.9397
G01 X4.2993 Y18.8426
G01 X4.2953 Y18.8026
G01 X4.2905 Y18.7046
G01 X4.2905 Y18.6643
G01 X4.2953 Y18.5663
G01 X4.2993 Y18.5263
G01 X4.3137 Y18.4292
G01 X4.3215 Y18.3897
G01 X4.3453 Y18.2945
G01 X4.3570 Y18.2560
G01 X4.3901 Y18.1636
G01 X4.4055 Y18.1265
G01 X4.4474 Y18.0377
G01 X4.4664 Y18.0023
G01 X4.5169 Y17.9181
G01 X4.5392 Y17.8846
G01 X4.5977 Y17.8058
G01 X4.6232 Y17.7747
G01 X4.6891 Y17.7020
G01 X4.7176 Y17.6735
G01 X4.7903 Y17.6076
G01 X4.8214 Y17.5821
G01 X4.9002 Y17.5237
G01 X4.9336 Y17.5013
G01 X5.0178 Y17.4509
G01 X5.0533 Y17.4319
G01 X5.1420 Y17.3899
G01 X5.1792 Y17.3745
G01 X5.2716 Y17.3415
G01 X5.3101 Y17.3298
G01 X5.4053 Y17.3059
G01 X5.4448 Y17.2981
G01 X5.5418 Y17.2837
G01 X5.5819 Y17.2797
G01 X5.6799 Y17.2749
G01 X5.7201 Y17.2749
G01 X5.8181 Y17.2797
G01 X5.8582 Y17.2837
G01 X5.9552 Y17.2981
G01 X5.9947 Y17.3059
G01 X6.0899 Y17.3298
G01 X6.1284 Y17.3415
G01 X6.2208 Y17.3745
G01 X6.2580 Y17.3899
G01 X6.3467 Y17.4319
G01 X6.3822 Y17.4509
G01 X6.4664 Y17.5013
G01 X6.4998 Y17.5237
G01 X6.5786 Y17.5821
G01 X6.6097 Y17.6076
G01 X6.6824 Y17.6735
G01 X6.7109 Y17.7020
G01 X6.7179 Y17.7098
G01 X25.0097 Y17.7098
G01 X25.0097 Y12.0475
G01 X24.9432 Y11.9742
G01 X24.9177 Y11.9431
G01 X24.8592 Y11.8642
G01 X24.8369 Y11.8308
G01 X24.7864 Y11.7466
G01 X24.7674 Y11.7111
G01 X24.7255 Y11.6224
G01 X24.7101 Y11.5852
G01 X24.6770 Y11.4928
G01 X24.6653 Y11.4543
G01 X24.6415 Y11.3592
G01 X24.6337 Y11.3197
G01 X24.6193 Y11.2226
G01 X24.6153 Y11.1826
G01 X24.6105 Y11.0846
G01 X24.6105 Y11.0443
G01 X24.6153 Y10.9463
G01 X24.6193 Y10.9063
G01 X24.6337 Y10.8092
G01 X24.6415 Y10.7697
G01 X24.6653 Y10.6745
G01 X24.6770 Y10.6360
G01 X24.7101 Y10.5436
G01 X24.7255 Y10.5065
G01 X24.7674 Y10.4177
G01 X24.7864 Y10.3823
G01 X24.8369 Y10.2981
G01 X24.8592 Y10.2646
G01 X24.9177 Y10.1858
G01 X24.9432 Y10.1547
G01 X25.0091 Y10.0820
G01 X25.0376 Y10.0535
G01 X25.1103 Y9.9876
G01 X25.1414 Y9.9621
G01 X25.2202 Y9.9037
G01 X25.2536 Y9.8813
G01 X25.3378 Y9.8309
G01 X25.3733 Y9.8119
G01 X25.4620 Y9.7699
G01 X25.4992 Y9.7545
G01 X25.5916 Y9.7215
G01 X25.6301 Y9.7098
G01 X25.7253 Y9.6859
G01 X25.7648 Y9.6781
G01 X25.8618 Y9.6637
G01 X25.9019 Y9.6597
G01 X25.9999 Y9.6549
G01 X26.0401 Y9.6549
G01 X26.1381 Y9.6597
G01 X26.1782 Y9.6637
G01 X26.2752 Y9.6781
G01 X26.3147 Y9.6859
G01 X26.4099 Y9.7098
G01 X26.4484 Y9.7215
G01 X26.5408 Y9.7545
G01 X26.5780 Y9.7699
G01 X26.6667 Y9.8119
G01 X26.7022 Y9.8309
G01 X26.7864 Y9.8813
G01 X26.8198 Y9.9037
G01 X26.8986 Y9.9621
G01 X26.9297 Y9.9876
G01 X27.0024 Y10.0535
G01 X27.0309 Y10.0820
G01 X27.0968 Y10.1547
G01 X27.1223 Y10.1858
G01 X27.1808 Y10.2646
G01 X27.2031 Y10.2981
G01 X27.2536 Y10.3823
G01 X27.2726 Y10.4177
G01 X27.3145 Y10.5065
G01 X27.3299 Y10.5436
G01 X27.3630 Y10.6360
G01 X27.3747 Y10.6745
G01 X27.3985 Y10.7697
G01 X27.4063 Y10.8092
G01 X27.4207 Y10.9063
G01 X27.4247 Y10.9463
G01 X27.4295 Y11.0443
G01 X27.4295 Y11.0846
G01 X27.4247 Y11.1826
G01 X27.4207 Y11.2226
G01 X27.4063 Y11.3197
G01 X27.3985 Y11.3592
G01 X27.3747 Y11.4543
G01 X27.3630 Y11.4928
G01 X27.3299 Y11.5852
G01 X27.3145 Y11.6224
G01 X27.2726 Y11.7111
G01 X27.2536 Y11.7466
G01 X27.2031 Y11.8308
G01 X27.1808 Y11.8642
G01 X27.1223 Y11.9431
G01 X27.0968 Y11.9742
G01 X27.0303 Y12.0475
G01 X27.0303 Y17.7098
G01 X42.7821 Y17.7098
G01 X42.7891 Y17.7020
G01 X42.8176 Y17.6735
G01 X42.8903 Y17.6076
G01 X42.9214 Y17.5821
G01 X43.0002 Y17.5237
G01 X43.0336 Y17.5013
G01 X43.1178 Y17.4509
G01 X43.1533 Y17.4319
G01 X43.2420 Y17.3899
G01 X43.2792 Y17.3745
G01 X43.3716 Y17.3415
G01 X43.4101 Y17.3298
G01 X43.5053 Y17.3059
G01 X43.5448 Y17.2981
G01 X43.6418 Y17.2837
G01 X43.6819 Y17.2797
G01 X43.7799 Y17.2749
G01 X43.8201 Y17.2749
G01 X43.9181 Y17.2797
G01 X43.9582 Y17.2837
G01 X44.0552 Y17.2981
G01 X44.0947 Y17.3059
G01 X44.1899 Y17.3298
G01 X44.2284 Y17.3415
G01 X44.3208 Y17.3745
G01 X44.3580 Y17.3899
G01 X44.4467 Y17.4319
G01 X44.4822 Y17.4509
G01 X44.5664 Y17.5013
G01 X44.5998 Y17.5237
G01 X44.6786 Y17.5821
G01 X44.7097 Y17.6076
G01 X44.7824 Y17.6735
G01 X44.8109 Y17.7020
G01 X44.8768 Y17.7747
G01 X44.9023 Y17.8058
G01 X44.9608 Y17.8846
G01 X44.9831 Y17.9181
G01 X45.0336 Y18.0023
G01 X45.0526 Y18.0377
G01 X45.0945 Y18.1265
G01 X45.1099 Y18.1636
G01 X45.1430 Y18.2560
G01 X45.1547 Y18.2945
G01 X45.1785 Y18.3897
G01 X45.1863 Y18.4292
G01 X45.2007 Y18.5263
G01 X45.2047 Y18.5663
G01 X45.2095 Y18.6643
G01 X45.2095 Y18.7046
G01 X45.2047 Y18.8026
G01 X45.2007 Y18.8426
G01 X45.1863 Y18.9397
G01 X45.1785 Y18.9792
G01 X45.1547 Y19.0743
G01 X45.1430 Y19.1128
G01 X45.1099 Y19.2052
G01 X45.0945 Y19.2424
G01 X45.0526 Y19.3311
G01 X45.0336 Y19.3666
G01 X44.9831 Y19.4508
G01 X44.9608 Y19.4842
G01 X44.9023 Y19.5631
G01 X44.8768 Y19.5942
G01 X44.8109 Y19.6669
G01 X44.7824 Y19.6953
G01 X44.7097 Y19.7612
G01 X44.6786 Y19.7868
G01 X44.5998 Y19.8452
G01 X44.5664 Y19.8676
G01 X44.4822 Y19.9180
G01 X44.4467 Y19.9370
G01 X44.3580 Y19.9790
G01 X44.3208 Y19.9944
G01 X44.2284 Y20.0274
G01 X44.1899 Y20.0391
G01 X44.0947 Y20.0629
G01 X44.0552 Y20.0708
G01 X43.9582 Y20.0852
G01 X43.9181 Y20.0891
G01 X43.8201 Y20.0939
G01 X43.7799 Y20.0939
G01 X43.6819 Y20.0891
G01 X43.6418 Y20.0852
G01 X43.5448 Y20.0708
G01 X43.5053 Y20.0629
G01 X43.4101 Y20.0391
G01 X43.3716 Y20.0274
G01 X43.2792 Y19.9944
G01 X43.2420 Y19.9790
G01 X43.1533 Y19.9370
G01 X43.1178 Y19.9180
G01 X43.0336 Y19.8676
G01 X43.0002 Y19.8452
G01 X42.9214 Y19.7868
G01 X42.8903 Y19.7612
G01 X42.8562 Y19.7304
G01 X27.0030 Y19.7304
G01 X26.9297 Y19.7969
G01 X26.8986 Y19.8224
G01 X26.8198 Y19.8809
G01 X26.7863 Y19.9032
G01 X26.7021 Y19.9537
G01 X26.6667 Y19.9726
G01 X26.5780 Y20.0146
G01 X26.5408 Y20.0300
G01 X26.4484 Y20.0630
G01 X26.4099 Y20.0747
G01 X26.3147 Y20.0986
G01 X26.2752 Y20.1064
G01 X26.1781 Y20.1208
G01 X26.1381 Y20.1248
G01 X26.0401 Y20.1296
G01 X25.9999 Y20.1296
G01 X25.9018 Y20.1248
G01 X25.8618 Y20.1208
G01 X25.7647 Y20.1064
G01 X25.7253 Y20.0986
G01 X25.6301 Y20.0747
G01 X25.5916 Y20.0630
G01 X25.4992 Y20.0300
G01 X25.4620 Y20.0146
G01 X25.3733 Y19.9726
G01 X25.3378 Y19.9537
G01 X25.2536 Y19.9032
G01 X25.2202 Y19.8809
G01 X25.1413 Y19.8224
G01 X25.1102 Y19.7969
G01 X25.0369 Y19.7304
G01 X6.6438 Y19.7304
G00 Z2.0000
G00 X6.6440 Y22.7898
G01 F60.00
G01 Z-0.9000
G01 F120.00
G01 X25.0369 Y22.7898
G01 X25.1102 Y22.7233
G01 X25.1413 Y22.6977
G01 X25.2202 Y22.6393
G01 X25.2536 Y22.6169
G01 X25.3378 Y22.5665
G01 X25.3733 Y22.5475
G01 X25.4620 Y22.5056
G01 X25.4992 Y22.4902
G01 X25.5916 Y22.4571
G01 X25.6301 Y22.4454
G01 X25.7253 Y22.4216
G01 X25.7647 Y22.4137
G01 X25.8618 Y22.3993
G01 X25.9018 Y22.3954
G01 X25.9999 Y22.3906
G01 X26.0401 Y22.3906
G01 X26.1381 Y22.3954
G01 X26.1781 Y22.3993
G01 X26.2752 Y22.4137
G01 X26.3147 Y22.4216
G01 X26.4099 Y22.4454
G01 X26.4484 Y22.4571
G01 X26.5408 Y22.4902
G01 X26.5780 Y22.5056
G01 X26.6667 Y22.5475
G01 X26.7021 Y22.5665
G01 X26.7863 Y22.6169
G01 X26.8198 Y22.6393
G01 X26.8986 Y22.6977
G01 X26.9297 Y22.7233
G01 X27.0030 Y22.7898
G01 X42.8560 Y22.7898
G01 X42.8903 Y22.7587
G01 X42.9214 Y22.7332
G01 X43.0002 Y22.6748
G01 X43.0336 Y22.6524
G01 X43.1178 Y22.6020
G01 X43.1533 Y22.5830
G01 X43.2420 Y22.5410
G01 X43.2792 Y22.5256
G01 X43.3716 Y22.4926
G01 X43.4101 Y22.4809
G01 X43.5053 Y22.4571
G01 X43.5448 Y22.4492
G01 X43.6418 Y22.4348
G01 X43.6819 Y22.4309
G01 X43.7799 Y22.4260
G01 X43.8201 Y22.4260
G01 X43.9181 Y22.4309
G01 X43.9582 Y22.4348
G01 X44.0552 Y22.4492
G01 X44.0947 Y22.4571
G01 X44.1899 Y22.4809
G01 X44.2284 Y22.4926
G01 X44.3208 Y22.5256
G01 X44.3580 Y22.5410
G01 X44.4467 Y22.5830
G01 X44.4822 Y22.6020
G01 X44.5664 Y22.6524
G01 X44.5998 Y22.6748
G01 X44.6786 Y22.7332
G01 X44.7097 Y22.7587
G01 X44.7824 Y22.8247
G01 X44.8109 Y22.8531
G01 X44.8768 Y22.9258
G01 X44.9023 Y22.9569
G01 X44.9608 Y23.0357
G01 X44.9831 Y23.0692
G01 X45.0336 Y23.1534
G01 X45.0526 Y23.1889
G01 X45.0945 Y23.2776
G01 X45.1099 Y23.3147
G01 X45.1430 Y23.4071
G01 X45.1547 Y23.4456
G01 X45.1785 Y23.5408
G01 X45.1863 Y23.5803
G01 X45.2007 Y23.6774
G01 X45.2047 Y23.7174
G01 X45.2095 Y23.8154
G01 X45.2095 Y23.8557
G01 X45.2047 Y23.9537
G01 X45.2007 Y23.9937
G01 X45.1863 Y24.0908
G01 X45.1785 Y24.1303
G01 X45.1547 Y24.2255
G01 X45.1430 Y24.2640
G01 X45.1099 Y24.3564
G01 X45.0945 Y24.3935
G01 X45.0526 Y24.4822
G01 X45.0336 Y24.5177
G01 X44.9831 Y24.6019
G01 X44.9608 Y24.6354
G01 X44.9023 Y24.7142
G01 X44.8768 Y24.7453
G01 X44.8109 Y24.8180
G01 X44.7824 Y24.8464
G01 X44.7097 Y24.9124
G01 X44.6786 Y24.9379
G01 X44.5998 Y24.9963
G01 X44.5664 Y25.0187
G01 X44.4822 Y25.0691
G01 X44.4467 Y25.0881
G01 X44.3580 Y25.1301
G01 X44.3208 Y25.1455
G01 X44.2284 Y25.1785
G01 X44.1899 Y25.1902
G01 X44.0947 Y25.2140
G01 X44.0552 Y25.2219
G01 X43.9582 Y25.2363
G01 X43.9181 Y25.2402
G01 X43.8201 Y25.2451
G01 X43.7799 Y25.2451
G01 X43.6819 Y25.2402
G01 X43.6418 Y25.2363
G01 X43.5448 Y25.2219
G01 X43.5053 Y25.2140
G01 X43.4101 Y25.1902
G01 X43.3716 Y25.1785
G01 X43.2792 Y25.1455
G01 X43.2420 Y25.1301
G01 X43.1533 Y25.0881
G01 X43.1178 Y25.0691
G01 X43.0336 Y25.0187
G01 X43.0002 Y24.9963
G01 X42.9214 Y24.9379
G01 X42.8903 Y24.9124
G01 X42.8176 Y24.8464
G01 X42.7891 Y24.8180
G01 X42.7822 Y24.8104
G01 X27.0030 Y24.8104
G01 X26.9297 Y24.8769
G01 X26.8986 Y24.9024
G01 X26.8198 Y24.9609
G01 X26.7863 Y24.9832
G01 X26.7021 Y25.0337
G01 X26.6667 Y25.0526
G01 X26.5780 Y25.0946
G01 X26.5408 Y25.1100
G01 X26.4484 Y25.1430
G01 X26.4099 Y25.1547
G01 X26.3147 Y25.1786
G01 X26.2752 Y25.1864
G01 X26.1781 Y25.2008
G01 X26.1381 Y25.2048
G01 X26.0401 Y25.2096
G01 X25.9999 Y25.2096
G01 X25.9018 Y25.2048
G01 X25.8618 Y25.2008
G01 X25.7647 Y25.1864
G01 X25.7253 Y25.1786
G01 X25.6301 Y25.1547
G01 X25.5916 Y25.1430
G01 X25.4992 Y25.1100
G01 X25.4620 Y25.0946
G01 X25.3733 Y25.0526
G01 X25.3378 Y25.0337
G01 X25.2536 Y24.9832
G01 X25.2202 Y24.9609
G01 X25.1413 Y24.9024
G01 X25.1102 Y24.8769
G01 X25.0369 Y24.8104
G01 X6.7178 Y24.8104
G01 X6.7109 Y24.8180
G01 X6.6824 Y24.8464
G01 X6.6097 Y24.9124
G01 X6.5786 Y24.9379
G01 X6.4998 Y24.9963
G01 X6.4664 Y25.0187
G01 X6.3822 Y25.0691
G01 X6.3467 Y25.0881
G01 X6.2580 Y25.1301
G01 X6.2208 Y25.1455
G01 X6.1284 Y25.1785
G01 X6.0899 Y25.1902
G01 X5.9947 Y25.2140
G01 X5.9552 Y25.2219
G01 X5.8582 Y25.2363
G01 X5.8181 Y25.2402
G01 X5.7201 Y25.2451
G01 X5.6799 Y25.2451
G01 X5.5819 Y25.2402
G01 X5.5418 Y25.2363
G01 X5.4448 Y25.2219
G01 X5.4053 Y25.2140
G01 X5.3101 Y25.1902
G01 X5.2716 Y25.1785
G01 X5.1792 Y25.1455
G01 X5.1420 Y25.1301
G01 X5.0533 Y25.0881
G01 X5.0178 Y25.0691
G01 X4.9336 Y25.0187
G01 X4.9002 Y24.9963
G01 X4.8214 Y24.9379
G01 X4.7903 Y24.9124
G01 X4.7176 Y24.8464
G01 X4.6891 Y24.8180
G01 X4.6232 Y24.7453
G01 X4.5977 Y24.7142
G01 X4.5392 Y24.6354
G01 X4.5169 Y24.6019
G01 X4.4664 Y24.5177
G01 X4.4474 Y24.4822
G01 X4.4055 Y24.3935
G01 X4.3901 Y24.3564
G01 X4.3570 Y24.2640
G01 X4.3453 Y24.2255
G01 X4.3215 Y24.1303
G01 X4.3137 Y24.0908
G01 X4.2993 Y23.9937
G01 X4.2953 Y23.9537
G01 X4.2905 Y23.8557
G01 X4.2905 Y23.8154
G01 X4.2953 Y23.7174
G01 X4.2993 Y23.6774
G01 X4.3137 Y23.5803
G01 X4.3215 Y23.5408
G01 X4.3453 Y23.4456
G01 X4.3570 Y23.4071
G01 X4.3901 Y23.3147
G01 X4.4055 Y23.2776
G01 X4.4474 Y23.1889
G01 X4.4664 Y23.1534
G01 X4.5169 Y23.0692
G01 X4.5392 Y23.0357
G01 X4.5977 Y22.9569
G01 X4.6232 Y22.9258
G01 X4.6891 Y22.8531
G01 X4.7176 Y22.8247
G01 X4.7903 Y22.7587
G01 X4.8214 Y22.7332
G01 X4.9002 Y22.6748
G01 X4.9336 Y22.6524
G01 X5.0178 Y22.6020
G01 X5.0533 Y22.5830
G01 X5.1420 Y22.5410
G01 X5.1792 Y22.5256
G01 X5.2716 Y22.4926
G01 X5.3101 Y22.4809
G01 X5.4053 Y22.4571
G01 X5.4448 Y22.4492
G01 X5.5418 Y22.4348
G01 X5.5819 Y22.4309
G01 X5.6799 Y22.4260
G01 X5.7201 Y22.4260
G01 X5.8181 Y22.4309
G01 X5.8582 Y22.4348
G01 X5.9552 Y22.4492
G01 X5.9947 Y22.4571
G01 X6.0899 Y22.4809
G01 X6.1284 Y22.4926
G01 X6.2208 Y22.5256
G01 X6.2580 Y22.5410
G01 X6.3467 Y22.5830
G01 X6.3822 Y22.6020
G01 X6.4664 Y22.6524
G01 X6.4998 Y22.6748
G01 X6.5786 Y22.7332
G01 X6.6097 Y22.7587
G01 X6.6440 Y22.7898
G00 Z2.0000
G00 X6.6092 Y22.8798
G01 F60.00
G01 Z-0.9000
G01 F120.00
G01 X25.0742 Y22.8798
G01 X25.0980 Y22.8559
G01 X25.1707 Y22.7900
G01 X25.1950 Y22.7700
G01 X25.2738 Y22.7116
G01 X25.2999 Y22.6941
G01 X25.3841 Y22.6437
G01 X25.4118 Y22.6289
G01 X25.5005 Y22.5869
G01 X25.5295 Y22.5749
G01 X25.6219 Y22.5418
G01 X25.6519 Y22.5327
G01 X25.7471 Y22.5089
G01 X25.7779 Y22.5027
G01 X25.8750 Y22.4883
G01 X25.9063 Y22.4853
G01 X26.0043 Y22.4805
G01 X26.0357 Y22.4805
G01 X26.1337 Y22.4853
G01 X26.1649 Y22.4883
G01 X26.2620 Y22.5027
G01 X26.2928 Y22.5089
G01 X26.3880 Y22.5327
G01 X26.4181 Y22.5418
G01 X26.5105 Y22.5749
G01 X26.5395 Y22.5869
G01 X26.6282 Y22.6289
G01 X26.6559 Y22.6437
G01 X26.7401 Y22.6941
G01 X26.7662 Y22.7116
G01 X26.8450 Y22.7700
G01 X26.8693 Y22.7900
G01 X26.9420 Y22.8559
G01 X26.9657 Y22.8798
G01 X42.8908 Y22.8798
G01 X42.9507 Y22.8254
G01 X42.9750 Y22.8055
G01 X43.0538 Y22.7471
G01 X43.0799 Y22.7296
G01 X43.1641 Y22.6792
G01 X43.1918 Y22.6644
G01 X43.2805 Y22.6224
G01 X43.3095 Y22.6104
G01 X43.4019 Y22.5773
G01 X43.4320 Y22.5682
G01 X43.5272 Y22.5444
G01 X43.5580 Y22.5382
G01 X43.6550 Y22.5238
G01 X43.6863 Y22.5208
G01 X43.7843 Y22.5159
G01 X43.8157 Y22.5159
G01 X43.9137 Y22.5208
G01 X43.9450 Y22.5238
G01 X44.0420 Y22.5382
G01 X44.0728 Y22.5444
G01 X44.1680 Y22.5682
G01 X44.1981 Y22.5773
G01 X44.2905 Y22.6104
G01 X44.3195 Y22.6224
G01 X44.4082 Y22.6644
G01 X44.4359 Y22.6792
G01 X44.5201 Y22.7296
G01 X44.5462 Y22.7471
G01 X44.6250 Y22.8055
G01 X44.6493 Y22.8254
G01 X44.7220 Y22.8913
G01 X44.7442 Y22.9135
G01 X44.8101 Y22.9863
G01 X44.8300 Y23.0105
G01 X44.8885 Y23.0894
G01 X44.9059 Y23.1155
G01 X44.9564 Y23.1996
G01 X44.9712 Y23.2273
G01 X45.0132 Y23.3160
G01 X45.0252 Y23.3451
G01 X45.0582 Y23.4375
G01 X45.0674 Y23.4675
G01 X45.0912 Y23.5627
G01 X45.0973 Y23.5935
G01 X45.1117 Y23.6906
G01 X45.1148 Y23.7218
G01 X45.1196 Y23.8198
G01 X45.1196 Y23.8513
G01 X45.1148 Y23.9493
G01 X45.1117 Y23.9805
G01 X45.0973 Y24.0776
G01 X45.0912 Y24.1084
G01 X45.0674 Y24.2036
G01 X45.0582 Y24.2336
G01 X45.0252 Y24.3260
G01 X45.0132 Y24.3551
G01 X44.9712 Y24.4438
G01 X44.9564 Y24.4715
G01 X44.9059 Y24.5556
G01 X44.8885 Y24.5817
G01 X44.8300 Y24.6606
G01 X44.8101 Y24.6848
G01 X44.7442 Y24.7576
G01 X44.7220 Y24.7798
G01 X44.6493 Y24.8457
G01 X44.6250 Y24.8656
G01 X44.5462 Y24.9240
G01 X44.5201 Y24.9415
G01 X44.4359 Y24.9919
G01 X44.4082 Y25.0067
G01 X44.3195 Y25.0487
G01 X44.2905 Y25.0607
G01 X44.1981 Y25.0938
G01 X44.1680 Y25.1029
G01 X44.0728 Y25.1267
G01 X44.0420 Y25.1329
G01 X43.9450 Y25.1473
G01 X43.9137 Y25.1503
G01 X43.8157 Y25.1552
G01 X43.7843 Y25.1552
G01 X43.6863 Y25.1503
G01 X43.6550 Y25.1473
G01 X43.5580 Y25.1329
G01 X43.5272 Y25.1267
G01 X43.4320 Y25.1029
G01 X43.4019 Y25.0938
G01 X43.3095 Y25.0607
G01 X43.2805 Y25.0487
G01 X43.1918 Y25.0067
G01 X43.1641 Y24.9919
G01 X43.0799 Y24.9415
G01 X43.0538 Y24.9240
G01 X42.9750 Y24.8656
G01 X42.9507 Y24.8457
G01 X42.8780 Y24.7798
G01 X42.8558 Y24.7576
G01 X42.8221 Y24.7204
G01 X26.9657 Y24.7204
G01 X26.9420 Y24.7443
G01 X26.8693 Y24.8102
G01 X26.8450 Y24.8301
G01 X26.7662 Y24.8886
G01 X26.7401 Y24.9060
G01 X26.6559 Y24.9565
G01 X26.6282 Y24.9713
G01 X26.5395 Y25.0132
G01 X26.5105 Y25.0252
G01 X26.4181 Y25.0583
G01 X26.3880 Y25.0674
G01 X26.2928 Y25.0913
G01 X26.2620 Y25.0974
G01 X26.1649 Y25.1118
G01 X26.1337 Y25.1149
G01 X26.0357 Y25.1197
G01 X26.0043 Y25.1197
G01 X25.9063 Y25.1149
G01 X25.8750 Y25.1118
G01 X25.7779 Y25.0974
G01 X25.7471 Y25.0913
G01 X25.6519 Y25.0674
G01 X25.6219 Y25.0583
G01 X25.5295 Y25.0252
G01 X25.5005 Y25.0132
G01 X25.4118 Y24.9713
G01 X25.3841 Y24.9565
G01 X25.2999 Y24.9060
G01 X25.2738 Y24.8886
G01 X25.1950 Y24.8301
G01 X25.1707 Y24.8102
G01 X25.0980 Y24.7443
G01 X25.0742 Y24.7204
G01 X6.6779 Y24.7204
G01 X6.6442 Y24.7576
G01 X6.6220 Y24.7798
G01 X6.5493 Y24.8457
G01 X6.5250 Y24.8656
G01 X6.4462 Y24.9240
G01 X6.4201 Y24.9415
G01 X6.3359 Y24.9919
G01 X6.3082 Y25.0067
G01 X6.2195 Y25.0487
G01 X6.1905 Y25.0607
G01 X6.0981 Y25.0938
G01 X6.0680 Y25.1029
G01 X5.9728 Y25.1267
G01 X5.9420 Y25.1329
G01 X5.8450 Y25.1473
G01 X5.8137 Y25.1503
G01 X5.7157 Y25.1552
G01 X5.6843 Y25.1552
G01 X5.5863 Y25.1503
G01 X5.5550 Y25.1473
G01 X5.4580 Y25.1329
G01 X5.4272 Y25.1267
G01 X5.3320 Y25.1029
G01 X5.3019 Y25.0938
G01 X5.2095 Y25.0607
G01 X5.1805 Y25.0487
G01 X5.0918 Y25.0067
G01 X5.0641 Y24.9919
G01 X4.9799 Y24.9415
G01 X4.9538 Y24.9240
G01 X4.8750 Y24.8656
G01 X4.8507 Y24.8457
G01 X4.7780 Y24.7798
G01 X4.7558 Y24.7576
G01 X4.6899 Y24.6848
G01 X4.6700 Y24.6606
G01 X4.6115 Y24.5817
G01 X4.5941 Y24.5556
G01 X4.5436 Y24.4715
G01 X4.5288 Y24.4438
G01 X4.4868 Y24.3551
G01 X4.4748 Y24.3260
G01 X4.4418 Y24.2336
G01 X4.4326 Y24.2036
G01 X4.4088 Y24.1084
G01 X4.4027 Y24.0776
G01 X4.3883 Y23.9805
G01 X4.3852 Y23.9493
G01 X4.3804 Y23.8513
G01 X4.3804 Y23.8198
G01 X4.3852 Y23.7218
G01 X4.3883 Y23.6906
G01 X4.4027 Y23.5935
G01 X4.4088 Y23.5627
G01 X4.4326 Y23.4675
G01 X4.4418 Y23.4375
G01 X4.4748 Y23.3451
G01 X4.4868 Y23.3160
G01 X4.5288 Y23.2273
G01 X4.5436 Y23.1996
G01 X4.5941 Y23.1155
G01 X4.6115 Y23.0894
G01 X4.6700 Y23.0105
G01 X4.6899 Y22.9863
G01 X4.7558 Y22.9135
G01 X4.7780 Y22.8913
G01 X4.8507 Y22.8254
G01 X4.8750 Y22.8055
G01 X4.9538 Y22.7471
G01 X4.9799 Y22.7296
G01 X5.0641 Y22.6792
G01 X5.0918 Y22.6644
G01 X5.1805 Y22.6224
G01 X5.2095 Y22.6104
G01 X5.3019 Y22.5773
G01 X5.3320 Y22.5682
G01 X5.4272 Y22.5444
G01 X5.4580 Y22.5382
G01 X5.5550 Y22.5238
G01 X5.5863 Y22.5208
G01 X5.6843 Y22.5159
G01 X5.7157 Y22.5159
G01 X5.8137 Y22.5208
G01 X5.8450 Y22.5238
G01 X5.9420 Y22.5382
G01 X5.9728 Y22.5444
G01 X6.0680 Y22.5682
G01 X6.0981 Y22.5773
G01 X6.1905 Y22.6104
G01 X6.2195 Y22.6224
G01 X6.3082 Y22.6644
G01 X6.3359 Y22.6792
G01 X6.4201 Y22.7296
G01 X6.4462 Y22.7471
G01 X6.5250 Y22.8055
G01 X6.5493 Y22.8254
G01 X6.6092 Y22.8798
G00 Z2.0000
G00 X6.5733 Y22.9698
G01 F60.00
G01 Z-0.9000
G01 F120.00
G01 X25.1141 Y22.9698
G01 X25.1424 Y22.9385
G01 X25.1584 Y22.9225
G01 X25.2311 Y22.8566
G01 X25.2486 Y22.8423
G01 X25.3274 Y22.7839
G01 X25.3462 Y22.7713
G01 X25.4303 Y22.7209
G01 X25.4502 Y22.7102
G01 X25.5389 Y22.6683
G01 X25.5598 Y22.6596
G01 X25.6522 Y22.6266
G01 X25.6738 Y22.6200
G01 X25.7690 Y22.5962
G01 X25.7911 Y22.5918
G01 X25.8882 Y22.5774
G01 X25.9107 Y22.5752
G01 X26.0087 Y22.5703
G01 X26.0313 Y22.5703
G01 X26.1293 Y22.5752
G01 X26.1517 Y22.5774
G01 X26.2488 Y22.5918
G01 X26.2709 Y22.5962
G01 X26.3661 Y22.6200
G01 X26.3877 Y22.6266
G01 X26.4801 Y22.6596
G01 X26.5010 Y22.6683
G01 X26.5897 Y22.7102
G01 X26.6096 Y22.7209
G01 X26.6938 Y22.7713
G01 X26.7126 Y22.7839
G01 X26.7914 Y22.8423
G01 X26.8088 Y22.8566
G01 X26.8815 Y22.9225
G01 X26.8975 Y22.9385
G01 X26.9258 Y22.9698
G01 X42.9267 Y22.9698
G01 X42.9384 Y22.9580
G01 X43.0111 Y22.8921
G01 X43.0286 Y22.8778
G01 X43.1074 Y22.8193
G01 X43.1262 Y22.8068
G01 X43.2104 Y22.7564
G01 X43.2303 Y22.7457
G01 X43.3190 Y22.7038
G01 X43.3398 Y22.6951
G01 X43.4322 Y22.6621
G01 X43.4538 Y22.6555
G01 X43.5490 Y22.6317
G01 X43.5712 Y22.6273
G01 X43.6682 Y22.6129
G01 X43.6907 Y22.6106
G01 X43.7887 Y22.6058
G01 X43.8113 Y22.6058
G01 X43.9093 Y22.6106
G01 X43.9318 Y22.6129
G01 X44.0288 Y22.6273
G01 X44.0510 Y22.6317
G01 X44.1462 Y22.6555
G01 X44.1678 Y22.6621
G01 X44.2602 Y22.6951
G01 X44.2810 Y22.7038
G01 X44.3697 Y22.7457
G01 X44.3896 Y22.7564
G01 X44.4738 Y22.8068
G01 X44.4926 Y22.8193
G01 X44.5714 Y22.8778
G01 X44.5889 Y22.8921
G01 X44.6616 Y22.9580
G01 X44.6775 Y22.9740
G01 X44.7434 Y23.0467
G01 X44.7577 Y23.0641
G01 X44.8162 Y23.1430
G01 X44.8287 Y23.1617
G01 X44.8792 Y23.2459
G01 X44.8898 Y23.2658
G01 X44.9318 Y23.3545
G01 X44.9404 Y23.3754
G01 X44.9735 Y23.4678
G01 X44.9800 Y23.4894
G01 X45.0039 Y23.5846
G01 X45.0083 Y23.6067
G01 X45.0227 Y23.7038
G01 X45.0249 Y23.7262
G01 X45.0297 Y23.8243
G01 X45.0297 Y23.8468
G01 X45.0249 Y23.9449
G01 X45.0227 Y23.9673
G01 X45.0083 Y24.0644
G01 X45.0039 Y24.0865
G01 X44.9800 Y24.1817
G01 X44.9735 Y24.2033
G01 X44.9404 Y24.2957
G01 X44.9318 Y24.3166
G01 X44.8898 Y24.4053
G01 X44.8792 Y24.4252
G01 X44.8287 Y24.5094
G01 X44.8162 Y24.5281
G01 X44.7577 Y24.6070
G01 X44.7434 Y24.6244
G01 X44.6775 Y24.6971
G01 X44.6616 Y24.7131
G01 X44.5889 Y24.7790
G01 X44.5714 Y24.7933
G01 X44.4926 Y24.8518
G01 X44.4738 Y24.8643
G01 X44.3896 Y24.9147
G01 X44.3697 Y24.9254
G01 X44.2810 Y24.9673
G01 X44.2602 Y24.9760
G01 X44.1678 Y25.0090
G01 X44.1462 Y25.0156
G01 X44.0510 Y25.0394
G01 X44.0288 Y25.0438
G01 X43.9318 Y25.0582
G01 X43.9093 Y25.0605
G01 X43.8113 Y25.0653
G01 X43.7887 Y25.0653
G01 X43.6907 Y25.0605
G01 X43.6682 Y25.0582
G01 X43.5712 Y25.0438
G01 X43.5490 Y25.0394
G01 X43.4538 Y25.0156
G01 X43.4322 Y25.0090
G01 X43.3398 Y24.9760
G01 X43.3190 Y24.9673
G01 X43.2303 Y24.9254
G01 X43.2104 Y24.9147
G01 X43.1262 Y24.8643
G01 X43.1074 Y24.8518
G01 X43.0286 Y24.7933
G01 X43.0111 Y24.7790
G01 X42.9384 Y24.7131
G01 X42.9225 Y24.6971
G01 X42.8620 Y24.6304
G01 X26.9258 Y24.6304
G01 X26.8975 Y24.6616
G01 X26.8815 Y24.6776
G01 X26.8088 Y24.7435
G01 X26.7914 Y24.7578
G01 X26.7126 Y24.8163
G01 X26.6938 Y24.8288
G01 X26.6096 Y24.8793
G01 X26.5897 Y24.8899
G01 X26.5010 Y24.9319
G01 X26.4801 Y24.9405
G01 X26.3877 Y24.9736
G01 X26.3661 Y24.9801
G01 X26.2709 Y25.0040
G01 X26.2488 Y25.0084
G01 X26.1517 Y25.0228
G01 X26.1293 Y25.0250
G01 X26.0313 Y25.0298
G01 X26.0087 Y25.0298
G01 X25.9107 Y25.0250
G01 X25.8882 Y25.0228
G01 X25.7911 Y25.0084
G01 X25.7690 Y25.0040
G01 X25.6738 Y24.9801
G01 X25.6522 Y24.9736
G01 X25.5598 Y24.9405
G01 X25.5389 Y24.9319
G01 X25.4502 Y24.8899
G01 X25.4303 Y24.8793
G01 X25.3462 Y24.8288
G01 X25.3274 Y24.8163
G01 X25.2486 Y24.7578
G01 X25.2311 Y24.7435
G01 X25.1584 Y24.6776
G01 X25.1424 Y24.6616
G01 X25.1141 Y24.6304
G01 X6.6380 Y24.6304
G01 X6.5775 Y24.6971
G01 X6.5616 Y24.7131
G01 X6.4889 Y24.7790
G01 X6.4714 Y24.7933
G01 X6.3926 Y24.8518
G01 X6.3738 Y24.8643
G01 X6.2896 Y24.9147
G01 X6.2697 Y24.9254
G01 X6.1810 Y24.9673
G01 X6.1602 Y24.9760
G01 X6.0678 Y25.0090
G01 X6.0462 Y25.0156
G01 X5.9510 Y25.0394
G01 X5.9288 Y25.0438
G01 X5.8318 Y25.0582
G01 X5.8093 Y25.0605
G01 X5.7113 Y25.0653
G01 X5.6887 Y25.0653
G01 X5.5907 Y25.0605
G01 X5.5682 Y25.0582
G01 X5.4712 Y25.0438
G01 X5.4490 Y25.0394
G01 X5.3538 Y25.0156
G01 X5.3322 Y25.0090
G01 X5.2398 Y24.9760
G01 X5.2190 Y24.9673
G01 X5.1303 Y24.9254
G01 X5.1104 Y24.9147
G01 X5.0262 Y24.8643
G01 X5.0074 Y24.8518
G01 X4.9286 Y24.7933
G01 X4.9111 Y24.7790
G01 X4.8384 Y24.7131
G01 X4.8225 Y24.6971
G01 X4.7566 Y24.6244
G01 X4.7423 Y24.6070
G01 X4.6838 Y24.5281
G01 X4.6713 Y24.5094
G01 X4.6208 Y24.4252
G01 X4.6102 Y24.4053
G01 X4.5682 Y24.3166
G01 X4.5596 Y24.2957
G01 X4.5265 Y24.2033
G01 X4.5200 Y24.1817
G01 X4.4961 Y24.0865
G01 X4.4917 Y24.0644
G01 X4.4773 Y23.9673
G01 X4.4751 Y23.9449
G01 X4.4703 Y23.8468
G01 X4.4703 Y23.8243
G01 X4.4751 Y23.7262
G01 X4.4773 Y23.7038
G01 X4.4917 Y23.6067
G01 X4.4961 Y23.5846
G01 X4.5200 Y23.4894
G01 X4.5265 Y23.4678
G01 X4.5596 Y23.3754
G01 X4.5682 Y23.3545
G01 X4.6102 Y23.2658
G01 X4.6208 Y23.2459
G01 X4.6713 Y23.1617
G01 X4.6838 Y23.1430
G01 X4.7423 Y23.0641
G01 X4.7566 Y23.0467
G01 X4.8225 Y22.9740
G01 X4.8384 Y22.9580
G01 X4.9111 Y22.8921
G01 X4.9286 Y22.8778
G01 X5.0074 Y22.8193
G01 X5.0262 Y22.8068
G01 X5.1104 Y22.7564
G01 X5.1303 Y22.7457
G01 X5.2190 Y22.7038
G01 X5.2398 Y22.6951
G01 X5.3322 Y22.6621
G01 X5.3538 Y22.6555
G01 X5.4490 Y22.6317
G01 X5.4712 Y22.6273
G01 X5.5682 Y22.6129
G01 X5.5907 Y22.6106
G01 X5.6887 Y22.6058
G01 X5.7113 Y22.6058
G01 X5.8093 Y22.6106
G01 X5.8318 Y22.6129
G01 X5.9288 Y22.6273
G01 X5.9510 Y22.6317
G01 X6.0462 Y22.6555
G01 X6.0678 Y22.6621
G01 X6.1602 Y22.6951
G01 X6.1810 Y22.7038
G01 X6.2697 Y22.7457
G01 X6.2896 Y22.7564
G01 X6.3738 Y22.8068
G01 X6.3926 Y22.8193
G01 X6.4714 Y22.8778
G01 X6.4889 Y22.8921
G01 X6.5616 Y22.9580
G01 X6.5733 Y22.9698
G00 Z2.0000
G00 X6.5498 Y24.4504
G01 F60.00
G01 Z-0.9000
G01 F120.00
G01 X6.5101 Y24.5035
G01 X6.4407 Y24.5797
G01 X6.3642 Y24.6487
G01 X6.2813 Y24.7099
G01 X6.1928 Y24.7627
G01 X6.0995 Y24.8065
G01 X6.0024 Y24.8410
G01 X5.9024 Y24.8658
G01 X5.8005 Y24.8807
G01 X5.6975 Y24.8855
G01 X5.5946 Y24.8802
G01 X5.4928 Y24.8648
G01 X5.3929 Y24.8396
G01 X5.2959 Y24.8046
G01 X5.2029 Y24.7604
G01 X5.1146 Y24.7072
G01 X5.0320 Y24.6456
G01 X4.9558 Y24.5762
G01 X4.8868 Y24.4997
G01 X4.8256 Y24.4168
G01 X4.7729 Y24.3283
G01 X4.7290 Y24.2351
G01 X4.6946 Y24.1380
G01 X4.6698 Y24.0380
G01 X4.6549 Y23.9360
G01 X4.6501 Y23.8331
G01 X4.6554 Y23.7302
G01 X4.6707 Y23.6283
G01 X4.6960 Y23.5284
G01 X4.7309 Y23.4315
G01 X4.7752 Y23.3384
G01 X4.8284 Y23.2502
G01 X4.8899 Y23.1676
G01 X4.9593 Y23.0914
G01 X5.0358 Y23.0224
G01 X5.1187 Y22.9612
G01 X5.2029 Y22.9107
G01 X5.2959 Y22.8665
G01 X5.3976 Y22.8301
G01 X5.4976 Y22.8053
G01 X5.5946 Y22.7909
G01 X5.6975 Y22.7856
G01 X5.8005 Y22.7904
G01 X5.9024 Y22.8053
G01 X6.0071 Y22.8315
G01 X6.1041 Y22.8665
G01 X6.1971 Y22.9107
G01 X6.2854 Y22.9639
G01 X6.3680 Y23.0255
G01 X6.4407 Y23.0914
G01 X6.4939 Y23.1498
G01 X25.1965 Y23.1498
G01 X25.2099 Y23.1321
G01 X25.2758 Y23.0594
G01 X25.3520 Y22.9900
G01 X25.4346 Y22.9284
G01 X25.5272 Y22.8729
G01 X25.6204 Y22.8291
G01 X25.7128 Y22.7961
G01 X25.8127 Y22.7708
G01 X25.9146 Y22.7554
G01 X26.0175 Y22.7501
G01 X26.1204 Y22.7549
G01 X26.2272 Y22.7708
G01 X26.3271 Y22.7961
G01 X26.4195 Y22.8291
G01 X26.5127 Y22.8729
G01 X26.6012 Y22.9257
G01 X26.6879 Y22.9900
G01 X26.7641 Y23.0594
G01 X26.8300 Y23.1321
G01 X26.8434 Y23.1498
G01 X43.0061 Y23.1498
G01 X43.0593 Y23.0914
G01 X43.1320 Y23.0255
G01 X43.2146 Y22.9639
G01 X43.3029 Y22.9107
G01 X43.3959 Y22.8665
G01 X43.4929 Y22.8315
G01 X43.5928 Y22.8063
G01 X43.6946 Y22.7909
G01 X43.8025 Y22.7856
G01 X43.9054 Y22.7909
G01 X44.0072 Y22.8063
G01 X44.1071 Y22.8315
G01 X44.2041 Y22.8665
G01 X44.2928 Y22.9084
G01 X44.3813 Y22.9612
G01 X44.4642 Y23.0224
G01 X44.5407 Y23.0914
G01 X44.6101 Y23.1676
G01 X44.6716 Y23.2502
G01 X44.7248 Y23.3384
G01 X44.7691 Y23.4315
G01 X44.8040 Y23.5284
G01 X44.8293 Y23.6283
G01 X44.8446 Y23.7302
G01 X44.8499 Y23.8331
G01 X44.8451 Y23.9360
G01 X44.8302 Y24.0380
G01 X44.8054 Y24.1380
G01 X44.7710 Y24.2351
G01 X44.7271 Y24.3283
G01 X44.6744 Y24.4168
G01 X44.6132 Y24.4997
G01 X44.5442 Y24.5762
G01 X44.4680 Y24.6456
G01 X44.3854 Y24.7072
G01 X44.2971 Y24.7604
G01 X44.2041 Y24.8046
G01 X44.1071 Y24.8396
G01 X44.0072 Y24.8648
G01 X43.9054 Y24.8802
G01 X43.8025 Y24.8855
G01 X43.6995 Y24.8807
G01 X43.5928 Y24.8648
G01 X43.4929 Y24.8396
G01 X43.4005 Y24.8065
G01 X43.3072 Y24.7627
G01 X43.2187 Y24.7099
G01 X43.1320 Y24.6456
G01 X43.0558 Y24.5762
G01 X42.9899 Y24.5035
G01 X42.9502 Y24.4504
G01 X26.8434 Y24.4504
G01 X26.8300 Y24.4680
G01 X26.7641 Y24.5408
G01 X26.6879 Y24.6101
G01 X26.6053 Y24.6717
G01 X26.5127 Y24.7272
G01 X26.4195 Y24.7710
G01 X26.3271 Y24.8041
G01 X26.2272 Y24.8294
G01 X26.1253 Y24.8447
G01 X26.0224 Y24.8500
G01 X25.9195 Y24.8452
G01 X25.8127 Y24.8294
G01 X25.7128 Y24.8041
G01 X25.6204 Y24.7710
G01 X25.5272 Y24.7272
G01 X25.4387 Y24.6744
G01 X25.3520 Y24.6101
G01 X25.2758 Y24.5408
G01 X25.2099 Y24.4680
G01 X25.1965 Y24.4504
G01 X6.5498 Y24.4504
G00 Z2.0000
G00 X6.5951 Y24.5404
G01 F60.00
G01 Z-0.9000
G01 F120.00
G01 X6.5855 Y24.5533
G01 X6.5767 Y24.5640
G01 X6.5108 Y24.6367
G01 X6.5011 Y24.6464
G01 X6.4284 Y24.7123
G01 X6.4178 Y24.7210
G01 X6.3390 Y24.7795
G01 X6.3275 Y24.7871
G01 X6.2434 Y24.8376
G01 X6.2313 Y24.8440
G01 X6.1425 Y24.8860
G01 X6.1298 Y24.8912
G01 X6.0374 Y24.9243
G01 X6.0243 Y24.9283
G01 X5.9291 Y24.9521
G01 X5.9156 Y24.9548
G01 X5.8186 Y24.9692
G01 X5.8049 Y24.9706
G01 X5.7069 Y24.9754
G01 X5.6931 Y24.9754
G01 X5.5951 Y24.9706
G01 X5.5814 Y24.9692
G01 X5.4844 Y24.9548
G01 X5.4709 Y24.9521
G01 X5.3757 Y24.9283
G01 X5.3626 Y24.9243
G01 X5.2702 Y24.8912
G01 X5.2575 Y24.8860
G01 X5.1687 Y24.8440
G01 X5.1566 Y24.8376
G01 X5.0725 Y24.7871
G01 X5.0610 Y24.7795
G01 X4.9822 Y24.7210
G01 X4.9716 Y24.7123
G01 X4.8989 Y24.6464
G01 X4.8892 Y24.6367
G01 X4.8233 Y24.5640
G01 X4.8145 Y24.5533
G01 X4.7561 Y24.4745
G01 X4.7484 Y24.4631
G01 X4.6980 Y24.3789
G01 X4.6915 Y24.3668
G01 X4.6496 Y24.2781
G01 X4.6443 Y24.2654
G01 X4.6112 Y24.1730
G01 X4.6073 Y24.1599
G01 X4.5834 Y24.0647
G01 X4.5807 Y24.0512
G01 X4.5663 Y23.9541
G01 X4.5650 Y23.9404
G01 X4.5602 Y23.8424
G01 X4.5602 Y23.8287
G01 X4.5650 Y23.7307
G01 X4.5663 Y23.7170
G01 X4.5807 Y23.6199
G01 X4.5834 Y23.6064
G01 X4.6073 Y23.5112
G01 X4.6112 Y23.4981
G01 X4.6443 Y23.4057
G01 X4.6496 Y23.3930
G01 X4.6915 Y23.3043
G01 X4.6980 Y23.2922
G01 X4.7484 Y23.2080
G01 X4.7561 Y23.1966
G01 X4.8145 Y23.1178
G01 X4.8233 Y23.1071
G01 X4.8892 Y23.0344
G01 X4.8989 Y23.0247
G01 X4.9716 Y22.9588
G01 X4.9822 Y22.9501
G01 X5.0610 Y22.8916
G01 X5.0725 Y22.8840
G01 X5.1566 Y22.8335
G01 X5.1687 Y22.8271
G01 X5.2575 Y22.7851
G01 X5.2702 Y22.7799
G01 X5.3626 Y22.7468
G01 X5.3757 Y22.7428
G01 X5.4709 Y22.7190
G01 X5.4844 Y22.7163
G01 X5.5814 Y22.7019
G01 X5.5951 Y22.7005
G01 X5.6931 Y22.6957
G01 X5.7069 Y22.6957
G01 X5.8049 Y22.7005
G01 X5.8186 Y22.7019
G01 X5.9156 Y22.7163
G01 X5.9291 Y22.7190
G01 X6.0243 Y22.7428
G01 X6.0374 Y22.7468
G01 X6.1298 Y22.7799
G01 X6.1425 Y22.7851
G01 X6.2313 Y22.8271
G01 X6.2434 Y22.8335
G01 X6.3275 Y22.8840
G01 X6.3390 Y22.8916
G01 X6.4178 Y22.9501
G01 X6.4284 Y22.9588
G01 X6.5011 Y23.0247
G01 X6.5108 Y23.0344
G01 X6.5338 Y23.0598
G01 X25.1540 Y23.0598
G01 X25.2091 Y22.9989
G01 X25.2188 Y22.9892
G01 X25.2916 Y22.9233
G01 X25.3022 Y22.9146
G01 X25.3810 Y22.8562
G01 X25.3924 Y22.8485
G01 X25.4766 Y22.7981
G01 X25.4887 Y22.7916
G01 X25.5774 Y22.7496
G01 X25.5901 Y22.7444
G01 X25.6825 Y22.7113
G01 X25.6957 Y22.7073
G01 X25.7909 Y22.6835
G01 X25.8043 Y22.6808
G01 X25.9014 Y22.6664
G01 X25.9151 Y22.6651
G01 X26.0131 Y22.6602
G01 X26.0268 Y22.6602
G01 X26.1249 Y22.6651
G01 X26.1385 Y22.6664
G01 X26.2356 Y22.6808
G01 X26.2491 Y22.6835
G01 X26.3443 Y22.7073
G01 X26.3574 Y22.7113
G01 X26.4498 Y22.7444
G01 X26.4625 Y22.7496
G01 X26.5512 Y22.7916
G01 X26.5633 Y22.7981
G01 X26.6475 Y22.8485
G01 X26.6589 Y22.8562
G01 X26.7378 Y22.9146
G01 X26.7484 Y22.9233
G01 X26.8211 Y22.9892
G01 X26.8308 Y22.9989
G01 X26.8859 Y23.0598
G01 X42.9662 Y23.0598
G01 X42.9892 Y23.0344
G01 X42.9989 Y23.0247
G01 X43.0716 Y22.9588
G01 X43.0822 Y22.9501
G01 X43.1610 Y22.8916
G01 X43.1725 Y22.8840
G01 X43.2566 Y22.8335
G01 X43.2687 Y22.8271
G01 X43.3575 Y22.7851
G01 X43.3702 Y22.7799
G01 X43.4626 Y22.7468
G01 X43.4757 Y22.7428
G01 X43.5709 Y22.7190
G01 X43.5844 Y22.7163
G01 X43.6814 Y22.7019
G01 X43.6951 Y22.7005
G01 X43.7931 Y22.6957
G01 X43.8069 Y22.6957
G01 X43.9049 Y22.7005
G01 X43.9186 Y22.7019
G01 X44.0156 Y22.7163
G01 X44.0291 Y22.7190
G01 X44.1243 Y22.7428
G01 X44.1374 Y22.7468
G01 X44.2298 Y22.7799
G01 X44.2425 Y22.7851
G01 X44.3313 Y22.8271
G01 X44.3434 Y22.8335
G01 X44.4275 Y22.8840
G01 X44.4390 Y22.8916
G01 X44.5178 Y22.9501
G01 X44.5284 Y22.9588
G01 X44.6011 Y23.0247
G01 X44.6108 Y23.0344
G01 X44.6767 Y23.1071
G01 X44.6855 Y23.1178
G01 X44.7439 Y23.1966
G01 X44.7516 Y23.2080
G01 X44.8020 Y23.2922
G01 X44.8085 Y23.3043
G01 X44.8504 Y23.3930
G01 X44.8557 Y23.4057
G01 X44.8888 Y23.4981
G01 X44.8927 Y23.5112
G01 X44.9166 Y23.6064
G01 X44.9193 Y23.6199
G01 X44.9337 Y23.7170
G01 X44.9350 Y23.7307
G01 X44.9398 Y23.8287
G01 X44.9398 Y23.8424
G01 X44.9350 Y23.9404
G01 X44.9337 Y23.9541
G01 X44.9193 Y24.0512
G01 X44.9166 Y24.0647
G01 X44.8927 Y24.1599
G01 X44.8888 Y24.1730
G01 X44.8557 Y24.2654
G01 X44.8504 Y24.2781
G01 X44.8085 Y24.3668
G01 X44.8020 Y24.3789
G01 X44.7516 Y24.4631
G01 X44.7439 Y24.4745
G01 X44.6855 Y24.5533
G01 X44.6767 Y24.5640
G01 X44.6108 Y24.6367
G01 X44.6011 Y24.6464
G01 X44.5284 Y24.7123
G01 X44.5178 Y24.7210
G01 X44.4390 Y24.7795
G01 X44.4275 Y24.7871
G01 X44.3434 Y24.8376
G01 X44.3313 Y24.8440
G01 X44.2425 Y24.8860
G01 X44.2298 Y24.8912
G01 X44.1374 Y24.9243
G01 X44.1243 Y24.9283
G01 X44.0291 Y24.9521
G01 X44.0156 Y24.9548
G01 X43.9186 Y24.9692
G01 X43.9049 Y24.9706
G01 X43.8069 Y24.9754
G01 X43.7931 Y24.9754
G01 X43.6951 Y24.9706
G01 X43.6814 Y24.9692
G01 X43.5844 Y24.9548
G01 X43.5709 Y24.9521
G01 X43.4757 Y24.9283
G01 X43.4626 Y24.9243
G01 X43.3702 Y24.8912
G01 X43.3575 Y24.8860
G01 X43.2687 Y24.8440
G01 X43.2566 Y24.8376
G01 X43.1725 Y24.7871
G01 X43.1610 Y24.7795
G01 X43.0822 Y24.7210
G01 X43.0716 Y24.7123
G01 X42.9989 Y24.6464
G01 X42.9892 Y24.6367
G01 X42.9233 Y24.5640
G01 X42.9145 Y24.5533
G01 X42.9049 Y24.5404
G01 X26.8859 Y24.5404
G01 X26.8308 Y24.6012
G01 X26.8211 Y24.6109
G01 X26.7484 Y24.6768
G01 X26.7378 Y24.6855
G01 X26.6589 Y24.7440
G01 X26.6475 Y24.7516
G01 X26.5633 Y24.8021
G01 X26.5512 Y24.8085
G01 X26.4625 Y24.8505
G01 X26.4498 Y24.8558
G01 X26.3574 Y24.8888
G01 X26.3443 Y24.8928
G01 X26.2491 Y24.9167
G01 X26.2356 Y24.9193
G01 X26.1385 Y24.9337
G01 X26.1249 Y24.9351
G01 X26.0268 Y24.9399
G01 X26.0131 Y24.9399
G01 X25.9151 Y24.9351
G01 X25.9014 Y24.9337
G01 X25.8043 Y24.9193
G01 X25.7909 Y24.9167
G01 X25.6957 Y24.8928
G01 X25.6825 Y24.8888
G01 X25.5901 Y24.8558
G01 X25.5774 Y24.8505
G01 X25.4887 Y24.8085
G01 X25.4766 Y24.8021
G01 X25.3924 Y24.7516
G01 X25.3810 Y24.7440
G01 X25.3022 Y24.6855
G01 X25.2916 Y24.6768
G01 X25.2188 Y24.6109
G01 X25.2091 Y24.6012
G01 X25.1540 Y24.5404
G01 X6.5951 Y24.5404
G00 Z2.0000
G00 X6.4938 Y29.5304
G01 F60.00
G01 Z-0.9000
G01 F120.00
G01 X6.4407 Y29.5886
G01 X6.3642 Y29.6576
G01 X6.2813 Y29.7188
G01 X6.1928 Y29.7716
G01 X6.0995 Y29.8154
G01 X6.0024 Y29.8499
G01 X5.9024 Y29.8747
G01 X5.8005 Y29.8896
G01 X5.6975 Y29.8944
G01 X5.5946 Y29.8891
G01 X5.4928 Y29.8737
G01 X5.3929 Y29.8485
G01 X5.2959 Y29.8135
G01 X5.2029 Y29.7692
G01 X5.1146 Y29.7161
G01 X5.0320 Y29.6545
G01 X4.9558 Y29.5851
G01 X4.8868 Y29.5086
G01 X4.8256 Y29.4257
G01 X4.7729 Y29.3372
G01 X4.7290 Y29.2440
G01 X4.6946 Y29.1469
G01 X4.6698 Y29.0469
G01 X4.6549 Y28.9449
G01 X4.6501 Y28.8420
G01 X4.6554 Y28.7391
G01 X4.6707 Y28.6372
G01 X4.6960 Y28.5373
G01 X4.7309 Y28.4404
G01 X4.7752 Y28.3473
G01 X4.8284 Y28.2591
G01 X4.8899 Y28.1765
G01 X4.9593 Y28.1003
G01 X5.0320 Y28.0344
G01 X5.1146 Y27.9728
G01 X5.2029 Y27.9196
G01 X5.2959 Y27.8754
G01 X5.3929 Y27.8404
G01 X5.4928 Y27.8152
G01 X5.5995 Y27.7993
G01 X5.7025 Y27.7945
G01 X5.8054 Y27.7998
G01 X5.9072 Y27.8152
G01 X6.0071 Y27.8404
G01 X6.0995 Y27.8735
G01 X6.1928 Y27.9173
G01 X6.2813 Y27.9701
G01 X6.3680 Y28.0344
G01 X6.4442 Y28.1038
G01 X6.5101 Y28.1765
G01 X6.5499 Y28.2298
G01 X25.1965 Y28.2298
G01 X25.2099 Y28.2121
G01 X25.2758 Y28.1394
G01 X25.3520 Y28.0700
G01 X25.4346 Y28.0084
G01 X25.5272 Y27.9529
G01 X25.6204 Y27.9091
G01 X25.7128 Y27.8761
G01 X25.8127 Y27.8508
G01 X25.9146 Y27.8354
G01 X26.0175 Y27.8301
G01 X26.1204 Y27.8349
G01 X26.2272 Y27.8508
G01 X26.3271 Y27.8761
G01 X26.4195 Y27.9091
G01 X26.5127 Y27.9529
G01 X26.6012 Y28.0057
G01 X26.6879 Y28.0700
G01 X26.7641 Y28.1394
G01 X26.8300 Y28.2121
G01 X26.8434 Y28.2298
G01 X42.9501 Y28.2298
G01 X42.9899 Y28.1765
G01 X43.0558 Y28.1038
G01 X43.1320 Y28.0344
G01 X43.2187 Y27.9701
G01 X43.3072 Y27.9173
G01 X43.4005 Y27.8735
G01 X43.4976 Y27.8390
G01 X43.5928 Y27.8152
G01 X43.6946 Y27.7998
G01 X43.8025 Y27.7945
G01 X43.9054 Y27.7998
G01 X44.0072 Y27.8152
G01 X44.1071 Y27.8404
G01 X44.2041 Y27.8754
G01 X44.2928 Y27.9173
G01 X44.3813 Y27.9701
G01 X44.4642 Y28.0313
G01 X44.5407 Y28.1003
G01 X44.6101 Y28.1765
G01 X44.6716 Y28.2591
G01 X44.7248 Y28.3473
G01 X44.7691 Y28.4404
G01 X44.8040 Y28.5373
G01 X44.8293 Y28.6372
G01 X44.8446 Y28.7391
G01 X44.8499 Y28.8420
G01 X44.8451 Y28.9449
G01 X44.8302 Y29.0469
G01 X44.8054 Y29.1469
G01 X44.7710 Y29.2440
G01 X44.7271 Y29.3372
G01 X44.6744 Y29.4257
G01 X44.6132 Y29.5086
G01 X44.5442 Y29.5851
G01 X44.4680 Y29.6545
G01 X44.3854 Y29.7161
G01 X44.2971 Y29.7692
G01 X44.2041 Y29.8135
G01 X44.1071 Y29.8485
G01 X44.0072 Y29.8737
G01 X43.9054 Y29.8891
G01 X43.8025 Y29.8944
G01 X43.6995 Y29.8896
G01 X43.5976 Y29.8747
G01 X43.4929 Y29.8485
G01 X43.3959 Y29.8135
G01 X43.3029 Y29.7692
G01 X43.2146 Y29.7161
G01 X43.1320 Y29.6545
G01 X43.0593 Y29.5886
G01 X43.0062 Y29.5304
G01 X26.8434 Y29.5304
G01 X26.8300 Y29.5480
G01 X26.7641 Y29.6208
G01 X26.6879 Y29.6901
G01 X26.6053 Y29.7517
G01 X26.5127 Y29.8072
G01 X26.4195 Y29.8510
G01 X26.3271 Y29.8841
G01 X26.2272 Y29.9094
G01 X26.1253 Y29.9247
G01 X26.0224 Y29.9300
G01 X25.9195 Y29.9252
G01 X25.8127 Y29.9094
G01 X25.7128 Y29.8841
G01 X25.6204 Y29.8510
G01 X25.5272 Y29.8072
G01 X25.4387 Y29.7544
G01 X25.3520 Y29.6901
G01 X25.2758 Y29.6208
G01 X25.2099 Y29.5480
G01 X25.1965 Y29.5304
G01 X6.4938 Y29.5304
G00 Z2.0000
G00 X6.5337 Y29.6204
G01 F60.00
G01 Z-0.9000
G01 F120.00
G01 X6.5108 Y29.6456
G01 X6.5011 Y29.6553
G01 X6.4284 Y29.7212
G01 X6.4178 Y29.7299
G01 X6.3390 Y29.7884
G01 X6.3275 Y29.7960
G01 X6.2434 Y29.8464
G01 X6.2313 Y29.8529
G01 X6.1425 Y29.8949
G01 X6.1298 Y29.9001
G01 X6.0374 Y29.9332
G01 X6.0243 Y29.9372
G01 X5.9291 Y29.9610
G01 X5.9156 Y29.9637
G01 X5.8186 Y29.9781
G01 X5.8049 Y29.9795
G01 X5.7069 Y29.9843
